; G-Code generated by Simplify3D(R) Version 4.1.2
; Jul 26, 2021 at 3:38:04 PM
; Settings Summary
;   processName,Process2
;   applyToModels,calib-squares-30x30-2
;   profileName,CaribouDuet PLA (modified)
;   profileVersion,2021-06-05 11:43:31
;   baseProfile,Default
;   printMaterial,fillamentum PLA
;   printQuality,Normal 0.2
;   printExtruders,
;   extruderName,Primary Extruder
;   extruderToolheadNumber,0
;   extruderDiameter,0.4
;   extruderAutoWidth,0
;   extruderWidth,0.4
;   extrusionMultiplier,0.95
;   extruderUseRetract,1
;   extruderRetractionDistance,0.6
;   extruderExtraRestartDistance,0
;   extruderRetractionZLift,0.6
;   extruderRetractionSpeed,1500
;   extruderUseCoasting,0
;   extruderCoastingDistance,0.5
;   extruderUseWipe,0
;   extruderWipeDistance,2
;   primaryExtruder,0
;   layerHeight,0.2
;   topSolidLayers,3
;   bottomSolidLayers,4
;   perimeterOutlines,1
;   printPerimetersInsideOut,1
;   startPointOption,3
;   startPointOriginX,0
;   startPointOriginY,210
;   sequentialIslands,1
;   spiralVaseMode,0
;   firstLayerHeightPercentage,100
;   firstLayerWidthPercentage,105
;   firstLayerUnderspeed,0.15
;   useRaft,0
;   raftExtruder,0
;   raftTopLayers,3
;   raftBaseLayers,2
;   raftOffset,3
;   raftSeparationDistance,0.12
;   raftTopInfill,100
;   aboveRaftSpeedMultiplier,0.3
;   useSkirt,0
;   skirtExtruder,0
;   skirtLayers,1
;   skirtOutlines,2
;   skirtOffset,2
;   usePrimePillar,0
;   primePillarExtruder,999
;   primePillarWidth,12
;   primePillarLocation,7
;   primePillarSpeedMultiplier,1
;   useOozeShield,0
;   oozeShieldExtruder,999
;   oozeShieldOffset,2
;   oozeShieldOutlines,1
;   oozeShieldSidewallShape,1
;   oozeShieldSidewallAngle,30
;   oozeShieldSpeedMultiplier,1
;   infillExtruder,0
;   internalInfillPattern,Rectilinear
;   externalInfillPattern,Rectilinear
;   infillPercentage,15
;   outlineOverlapPercentage,20
;   infillExtrusionWidthPercentage,105
;   minInfillLength,2
;   infillLayerInterval,1
;   internalInfillAngles,45,-45
;   overlapInternalInfillAngles,0
;   externalInfillAngles,45,-45
;   generateSupport,0
;   supportExtruder,0
;   supportInfillPercentage,15
;   supportExtraInflation,0.3
;   supportBaseLayers,1
;   denseSupportExtruder,0
;   denseSupportLayers,1
;   denseSupportInfillPercentage,75
;   supportLayerInterval,1
;   supportHorizontalPartOffset,0.15
;   supportUpperSeparationLayers,1
;   supportLowerSeparationLayers,1
;   supportType,0
;   supportGridSpacing,2
;   maxOverhangAngle,10
;   supportAngles,0,90
;   temperatureName,Primary Extruder,Heated Bed
;   temperatureNumber,0,0
;   temperatureSetpointCount,2,2
;   temperatureSetpointLayers,1,2,1,8
;   temperatureSetpointTemperatures,210,210,55,60
;   temperatureStabilizeAtStartup,1,1
;   temperatureHeatedBed,0,1
;   fanLayers,1,3
;   fanSpeeds,0,60
;   blipFanToFullPower,0
;   adjustSpeedForCooling,1
;   minSpeedLayerTime,18
;   minCoolingSpeedSlowdown,20
;   increaseFanForCooling,0
;   minFanLayerTime,45
;   maxCoolingFanSpeed,100
;   increaseFanForBridging,1
;   bridgingFanSpeed,100
;   use5D,1
;   relativeEdistances,1
;   allowEaxisZeroing,1
;   independentExtruderAxes,0
;   includeM10123,0
;   stickySupport,1
;   applyToolheadOffsets,0
;   gcodeXoffset,0
;   gcodeYoffset,0
;   gcodeZoffset,0
;   overrideMachineDefinition,1
;   machineTypeOverride,0
;   strokeXoverride,250
;   strokeYoverride,210
;   strokeZoverride,320
;   originOffsetXoverride,0
;   originOffsetYoverride,0
;   originOffsetZoverride,0
;   homeXdirOverride,-1
;   homeYdirOverride,-1
;   homeZdirOverride,-1
;   flipXoverride,1
;   flipYoverride,-1
;   flipZoverride,1
;   toolheadOffsets,0,0|0,0|0,0|0,0|0,0|0,0
;   overrideFirmwareConfiguration,0
;   firmwareTypeOverride,RepRap (Marlin/Repetier/Sprinter)
;   GPXconfigOverride,r2
;   baudRateOverride,115200
;   overridePrinterModels,0
;   printerModelsOverride
;   startingGcode,; =========================================================================================================,;,; start script for S3d for CaribouDuet,;,; =========================================================================================================,;, if !move.axes[0].homed || !move.axes[1].homed || !move.axes[2].homed,        G28                                                               ; home all axis without mesh bed level,G0 X60 Y-3 Z80                ; move extruder above bed,;  keep extruder in front for cleaning and checking,;,M104 S160 T0                  ; pre-heat extruder to 160C,M140 S[bed0_temperature]      ; this will take the layer 1 temperature for bed 0,M190 S[bed0_temperature]      ; wait for bed temp,;,G29                           ; mesh bed leveling using defined mesh grid,G0 X0 Y-3 Z0.6                ; go outside print area,;,M104 S[extruder0_temperature] ; set extruder temperature,M109 S[extruder0_temperature] ; wait for extruder temp,;,; =========================================================================================================,;,;,M98 P"0:/sys/primeLine.g"     ; execute primeline macro,;,G92 E0.0                      ; set extruder position,;,M572 D0 S0.07                 ; set pressure advance,;,; =========================================================================================================,
;   layerChangeGcode,G1 [current_Z_position] F10000;
;   retractionGcode,
;   toolChangeGcode,
;   endingGcode,M106 S0 ; turn off cooling fan,M104 S0 ; turn off extruder,M140 S0 ; turn off bed,G1 F1000.0 ; set feed rate,G1 E-3 ; retract,G1 X0 Y200 F7200 ; home XY axis,M84 ; disable motors,
;   exportFileFormat,gcode
;   celebration,0
;   celebrationSong,Funky Town
;   postProcessing,{REPLACE "; outer perimeter\n" "; outer perimeter\nM204 S600\n"},{REPLACE "; inner perimeter\n" "; inner perimeter\nM204 S1000\n"},{REPLACE "; solid layer\n" "; solid layer\nM204 S1000\n"},{REPLACE "; infill\n" "; infill\nM204 S1000\n"}
;   defaultSpeed,4800
;   outlineUnderspeed,0.5
;   solidInfillUnderspeed,0.8
;   supportUnderspeed,0.7
;   rapidXYspeed,7200
;   rapidZspeed,1200
;   minBridgingArea,50
;   bridgingExtraInflation,0.5
;   bridgingExtrusionMultiplier,0.95
;   bridgingSpeedMultiplier,0.4
;   useFixedBridgingAngle,1
;   fixedBridgingAngle,0
;   applyBridgingToPerimeters,0
;   filamentDiameters,1.75|1.75|1.75|1.75|1.75|1.75
;   filamentPricesPerKg,24|46|46|46|46|46
;   filamentDensities,1.25|1.25|1.25|1.25|1.25|1.25
;   useMinPrintHeight,0
;   minPrintHeight,0
;   useMaxPrintHeight,0
;   maxPrintHeight,3.97
;   useDiaphragm,0
;   diaphragmLayerInterval,20
;   robustSlicing,1
;   mergeAllIntoSolid,0
;   onlyRetractWhenCrossingOutline,0
;   retractBetweenLayers,1
;   useRetractionMinTravel,0
;   retractionMinTravel,1
;   retractWhileWiping,1
;   onlyWipeOutlines,1
;   avoidCrossingOutline,0
;   maxMovementDetourFactor,3
;   toolChangeRetractionDistance,12
;   toolChangeExtraRestartDistance,-0.5
;   toolChangeRetractionSpeed,600
;   externalThinWallType,1
;   internalThinWallType,1
;   thinWallAllowedOverlapPercentage,20
;   singleExtrusionMinLength,0
;   singleExtrusionMinPrintingWidthPercentage,50
;   singleExtrusionMaxPrintingWidthPercentage,200
;   singleExtrusionEndpointExtension,0.2
;   horizontalSizeCompensation,0
G90
M83
M106 S0
;
; start script for S3d for CaribouDuet
;
;
 if !move.axes[0].homed || !move.axes[1].homed || !move.axes[2].homed
        G28                                                               ; home all axis without mesh bed level
G0 X60 Y-3 Z80                ; move extruder above bed
;  keep extruder in front for cleaning and checking
;
M104 S160 T0                  ; pre-heat extruder to 160C
M140 S55      ; this will take the layer 1 temperature for bed 0
M190 S55      ; wait for bed temp
;
G29                           ; mesh bed leveling using defined mesh grid
G0 X0 Y-3 Z0.6                ; go outside print area
;
M104 S210 ; set extruder temperature
M109 S210 ; wait for extruder temp
;
;
;
M98 P"0:/sys/primeLine.g"     ; execute primeline macro
;
G92 E0.0                      ; set extruder position
;
M572 D0 S0.07                 ; set pressure advance
;
; process Process2
; layer 1, Z = 0.200
T0
G1 E-0.6000 F1500
G1 0.200 F10000;
; feature outer perimeter
; tool H0.200 W0.420
G1 Z0.600 F1200
G1 X10.210 Y119.790 F7200
G1 Z0.200 F1200
G1 E0.6000 F1500
G1 X10.210 Y90.210 E0.9814 F360
G1 X39.790 Y90.210 E0.9814
G1 X39.790 Y104.810 E0.4844
G1 X110.210 Y104.810 E2.3363
G1 X110.210 Y90.210 E0.4844
G1 X124.810 Y90.210 E0.4844
G1 X124.810 Y39.790 E1.6728
G1 X110.210 Y39.790 E0.4844
G1 X110.210 Y10.210 E0.9814
G1 X139.790 Y10.210 E0.9814
G1 X139.790 Y39.790 E0.9814
G1 X125.190 Y39.790 E0.4844
G1 X125.190 Y90.210 E1.6728
G1 X139.790 Y90.210 E0.4844
G1 X139.790 Y104.810 E0.4844
G1 X210.210 Y104.810 E2.3363
G1 X210.210 Y90.210 E0.4844
G1 X239.790 Y90.210 E0.9814
G1 X239.790 Y119.790 E0.9814
G1 X210.210 Y119.790 E0.9814
G1 X210.210 Y105.190 E0.4844
G1 X139.790 Y105.190 E2.3363
G1 X139.790 Y119.790 E0.4844
G1 X125.190 Y119.790 E0.4844
G1 X125.190 Y170.210 E1.6728
G1 X139.790 Y170.210 E0.4844
G1 X139.790 Y199.790 E0.9814
G1 X110.210 Y199.790 E0.9814
G1 X110.210 Y170.210 E0.9814
G1 X124.810 Y170.210 E0.4844
G1 X124.810 Y119.790 E1.6728
G1 X110.210 Y119.790 E0.4844
G1 X110.210 Y105.190 E0.4844
G1 X47.931 Y105.190 E2.0662
G1 X47.931 Y105.391 E0.0067
G1 X45.220 Y105.391 E0.0899
G1 X45.220 Y105.190 E0.0067
G1 X39.790 Y105.190 E0.1802
G1 X39.790 Y119.790 E0.4844
G1 X10.210 Y119.790 E0.9814
G1 E-0.6000 F1500
; feature external single extrusion
; tool H0.200 W0.663
G1 Z0.800 F1200
G1 X45.342 Y109.827 F7200
G1 Z0.200 F1200
G1 E0.6000 F1500
G1 X45.342 Y106.000 E0.2004 F360
G1 X45.342 Y105.800 E0.0105
G1 E-0.6000 F1500
; feature solid layer
; tool H0.200 W0.420
G1 Z0.800 F1200
G1 X39.270 Y90.546 F7200
G1 Z0.200 F1200
G1 E0.6000 F1500
G1 X39.454 Y90.730 E0.0086 F576
G1 X39.454 Y91.324 E0.0197
G1 X38.676 Y90.546 E0.0365
G1 X38.082 Y90.546 E0.0197
G1 X39.454 Y91.918 E0.0644
G1 X39.454 Y92.512 E0.0197
G1 X37.488 Y90.546 E0.0923
G1 X36.894 Y90.546 E0.0197
G1 X39.454 Y93.106 E0.1201
G1 X39.454 Y93.700 E0.0197
G1 X36.300 Y90.546 E0.1480
G1 X35.706 Y90.546 E0.0197
G1 X39.454 Y94.294 E0.1759
G1 X39.454 Y94.888 E0.0197
G1 X35.112 Y90.546 E0.2037
G1 X34.518 Y90.546 E0.0197
G1 X39.454 Y95.482 E0.2316
G1 X39.454 Y96.076 E0.0197
G1 X33.924 Y90.546 E0.2595
G1 X33.330 Y90.546 E0.0197
G1 X39.454 Y96.670 E0.2873
G1 X39.454 Y97.264 E0.0197
G1 X32.736 Y90.546 E0.3152
G1 X32.142 Y90.546 E0.0197
G1 X39.454 Y97.858 E0.3431
G1 X39.454 Y98.452 E0.0197
G1 X31.548 Y90.546 E0.3709
G1 X30.954 Y90.546 E0.0197
G1 X39.454 Y99.046 E0.3988
G1 X39.454 Y99.640 E0.0197
G1 X30.360 Y90.546 E0.4267
G1 X29.766 Y90.546 E0.0197
G1 X39.454 Y100.234 E0.4545
G1 X39.454 Y100.828 E0.0197
G1 X29.172 Y90.546 E0.4824
G1 X28.578 Y90.546 E0.0197
G1 X39.454 Y101.422 E0.5103
G1 X39.454 Y102.016 E0.0197
G1 X27.984 Y90.546 E0.5382
G1 X27.390 Y90.546 E0.0197
G1 X39.454 Y102.610 E0.5660
G1 X39.454 Y103.204 E0.0197
G1 X26.796 Y90.546 E0.5939
G1 X26.202 Y90.546 E0.0197
G1 X39.454 Y103.798 E0.6218
G1 X39.454 Y104.392 E0.0197
G1 X25.608 Y90.546 E0.6496
G1 X25.014 Y90.546 E0.0197
G1 X39.454 Y104.986 E0.6775
G1 X39.454 Y105.580 E0.0197
G1 X24.420 Y90.546 E0.7054
G1 X23.826 Y90.546 E0.0197
G1 X39.454 Y106.174 E0.7332
G1 X39.454 Y106.768 E0.0197
G1 X23.232 Y90.546 E0.7611
G1 X22.638 Y90.546 E0.0197
G1 X39.454 Y107.362 E0.7890
G1 X39.454 Y107.955 E0.0197
G1 X22.045 Y90.546 E0.8168
G1 X21.451 Y90.546 E0.0197
G1 X39.454 Y108.549 E0.8447
G1 X39.454 Y109.143 E0.0197
G1 X20.857 Y90.546 E0.8726
G1 X20.263 Y90.546 E0.0197
G1 X39.454 Y109.737 E0.9004
G1 X39.454 Y110.331 E0.0197
G1 X19.669 Y90.546 E0.9283
G1 X19.075 Y90.546 E0.0197
G1 X39.454 Y110.925 E0.9562
G1 X39.454 Y111.519 E0.0197
G1 X18.481 Y90.546 E0.9841
G1 X17.887 Y90.546 E0.0197
G1 X39.454 Y112.113 E1.0119
G1 X39.454 Y112.707 E0.0197
G1 X17.293 Y90.546 E1.0398
G1 X16.699 Y90.546 E0.0197
G1 X39.454 Y113.301 E1.0677
G1 X39.454 Y113.895 E0.0197
G1 X16.105 Y90.546 E1.0955
G1 X15.511 Y90.546 E0.0197
G1 X39.454 Y114.489 E1.1234
G1 X39.454 Y115.083 E0.0197
G1 X14.917 Y90.546 E1.1513
G1 X14.323 Y90.546 E0.0197
G1 X39.454 Y115.677 E1.1791
G1 X39.454 Y116.271 E0.0197
G1 X13.729 Y90.546 E1.2070
G1 X13.135 Y90.546 E0.0197
G1 X39.454 Y116.865 E1.2349
G1 X39.454 Y117.459 E0.0197
G1 X12.541 Y90.546 E1.2627
G1 X11.947 Y90.546 E0.0197
G1 X39.454 Y118.053 E1.2906
G1 X39.454 Y118.647 E0.0197
G1 X11.353 Y90.546 E1.3185
G1 X10.759 Y90.546 E0.0197
G1 X39.454 Y119.241 E1.3463
G1 X39.454 Y119.454 E0.0071
G1 X39.073 Y119.454 E0.0126
G1 X10.546 Y90.927 E1.3385
G1 X10.546 Y91.521 E0.0197
G1 X38.479 Y119.454 E1.3106
G1 X37.885 Y119.454 E0.0197
G1 X10.546 Y92.115 E1.2827
G1 X10.546 Y92.709 E0.0197
G1 X37.291 Y119.454 E1.2549
G1 X36.697 Y119.454 E0.0197
G1 X10.546 Y93.303 E1.2270
G1 X10.546 Y93.897 E0.0197
G1 X36.103 Y119.454 E1.1991
G1 X35.509 Y119.454 E0.0197
G1 X10.546 Y94.491 E1.1713
G1 X10.546 Y95.085 E0.0197
G1 X34.915 Y119.454 E1.1434
G1 X34.321 Y119.454 E0.0197
G1 X10.546 Y95.679 E1.1155
G1 X10.546 Y96.273 E0.0197
G1 X33.727 Y119.454 E1.0877
G1 X33.133 Y119.454 E0.0197
G1 X10.546 Y96.867 E1.0598
G1 X10.546 Y97.461 E0.0197
G1 X32.539 Y119.454 E1.0319
G1 X31.945 Y119.454 E0.0197
G1 X10.546 Y98.055 E1.0041
G1 X10.546 Y98.648 E0.0197
G1 X31.352 Y119.454 E0.9762
G1 X30.758 Y119.454 E0.0197
G1 X10.546 Y99.242 E0.9483
G1 X10.546 Y99.836 E0.0197
G1 X30.164 Y119.454 E0.9204
G1 X29.570 Y119.454 E0.0197
G1 X10.546 Y100.430 E0.8926
G1 X10.546 Y101.024 E0.0197
G1 X28.976 Y119.454 E0.8647
G1 X28.382 Y119.454 E0.0197
G1 X10.546 Y101.618 E0.8368
G1 X10.546 Y102.212 E0.0197
G1 X27.788 Y119.454 E0.8090
G1 X27.194 Y119.454 E0.0197
G1 X10.546 Y102.806 E0.7811
G1 X10.546 Y103.400 E0.0197
G1 X26.600 Y119.454 E0.7532
G1 X26.006 Y119.454 E0.0197
G1 X10.546 Y103.994 E0.7254
G1 X10.546 Y104.588 E0.0197
G1 X25.412 Y119.454 E0.6975
G1 X24.818 Y119.454 E0.0197
G1 X10.546 Y105.182 E0.6696
G1 X10.546 Y105.776 E0.0197
G1 X24.224 Y119.454 E0.6418
G1 X23.630 Y119.454 E0.0197
G1 X10.546 Y106.370 E0.6139
G1 X10.546 Y106.964 E0.0197
G1 X23.036 Y119.454 E0.5860
G1 X22.442 Y119.454 E0.0197
G1 X10.546 Y107.558 E0.5582
G1 X10.546 Y108.152 E0.0197
G1 X21.848 Y119.454 E0.5303
G1 X21.254 Y119.454 E0.0197
G1 X10.546 Y108.746 E0.5024
G1 X10.546 Y109.340 E0.0197
G1 X20.660 Y119.454 E0.4745
G1 X20.066 Y119.454 E0.0197
G1 X10.546 Y109.934 E0.4467
G1 X10.546 Y110.528 E0.0197
G1 X19.472 Y119.454 E0.4188
G1 X18.878 Y119.454 E0.0197
G1 X10.546 Y111.122 E0.3909
G1 X10.546 Y111.716 E0.0197
G1 X18.284 Y119.454 E0.3631
G1 X17.690 Y119.454 E0.0197
G1 X10.546 Y112.310 E0.3352
G1 X10.546 Y112.904 E0.0197
G1 X17.096 Y119.454 E0.3073
G1 X16.502 Y119.454 E0.0197
G1 X10.546 Y113.498 E0.2795
G1 X10.546 Y114.092 E0.0197
G1 X15.908 Y119.454 E0.2516
G1 X15.314 Y119.454 E0.0197
G1 X10.546 Y114.686 E0.2237
G1 X10.546 Y115.280 E0.0197
G1 X14.720 Y119.454 E0.1959
G1 X14.126 Y119.454 E0.0197
G1 X10.546 Y115.874 E0.1680
G1 X10.546 Y116.468 E0.0197
G1 X13.532 Y119.454 E0.1401
G1 X12.938 Y119.454 E0.0197
G1 X10.546 Y117.062 E0.1123
G1 X10.546 Y117.656 E0.0197
G1 X12.344 Y119.454 E0.0844
G1 X11.751 Y119.454 E0.0197
G1 X10.546 Y118.249 E0.0565
G1 X10.546 Y118.843 E0.0197
G1 X11.157 Y119.454 E0.0286
G1 X10.563 Y119.454 E0.0197
G1 X10.546 Y119.437 E0.0008
G1 E-0.6000 F1500
G1 Z0.800 F1200
G1 X110.943 Y119.454 F7200
G1 Z0.200 F1200
G1 E0.6000 F1500
G1 X110.546 Y119.057 E0.0186 F576
G1 X110.546 Y118.463 E0.0197
G1 X111.537 Y119.454 E0.0465
G1 X112.131 Y119.454 E0.0197
G1 X110.546 Y117.869 E0.0744
G1 X110.546 Y117.275 E0.0197
G1 X112.725 Y119.454 E0.1023
G1 X113.319 Y119.454 E0.0197
G1 X110.546 Y116.681 E0.1301
G1 X110.546 Y116.087 E0.0197
G1 X113.913 Y119.454 E0.1580
G1 X114.507 Y119.454 E0.0197
G1 X110.546 Y115.493 E0.1859
G1 X110.546 Y114.899 E0.0197
G1 X115.101 Y119.454 E0.2137
G1 X115.695 Y119.454 E0.0197
G1 X110.546 Y114.305 E0.2416
G1 X110.546 Y113.711 E0.0197
G1 X116.289 Y119.454 E0.2695
G1 X116.883 Y119.454 E0.0197
G1 X110.546 Y113.117 E0.2973
G1 X110.546 Y112.523 E0.0197
G1 X117.477 Y119.454 E0.3252
G1 X118.071 Y119.454 E0.0197
