; G-Code generated by Simplify3D(R) Version 4.0.1
; Jun 4, 2021 at 10:45:56 PM
; Settings Summary
;   processName,Process1
;   applyToModels,low_cube
;   profileName,CaribouDuet PLA (modified)
;   profileVersion,2021-05-07 20:16:28
;   baseProfile,Default
;   printMaterial,PLA
;   printQuality,0.2mm
;   printExtruders,
;   extruderName,Primary Extruder
;   extruderToolheadNumber,0
;   extruderDiameter,0.4
;   extruderAutoWidth,0
;   extruderWidth,0.37
;   extrusionMultiplier,0.97
;   extruderUseRetract,1
;   extruderRetractionDistance,0.4
;   extruderExtraRestartDistance,0
;   extruderRetractionZLift,0.6
;   extruderRetractionSpeed,1500
;   extruderUseCoasting,0
;   extruderCoastingDistance,0.2
;   extruderUseWipe,0
;   extruderWipeDistance,2
;   primaryExtruder,0
;   layerHeight,0.2
;   topSolidLayers,0
;   bottomSolidLayers,0
;   perimeterOutlines,1
;   printPerimetersInsideOut,0
;   startPointOption,2
;   startPointOriginX,0
;   startPointOriginY,300
;   sequentialIslands,0
;   spiralVaseMode,0
;   firstLayerHeightPercentage,100
;   firstLayerWidthPercentage,105
;   firstLayerUnderspeed,0.6
;   useRaft,0
;   raftExtruder,0
;   raftTopLayers,3
;   raftBaseLayers,2
;   raftOffset,3
;   raftSeparationDistance,0.14
;   raftTopInfill,100
;   aboveRaftSpeedMultiplier,0.3
;   useSkirt,1
;   skirtExtruder,0
;   skirtLayers,1
;   skirtOutlines,2
;   skirtOffset,2
;   usePrimePillar,0
;   primePillarExtruder,999
;   primePillarWidth,12
;   primePillarLocation,7
;   primePillarSpeedMultiplier,1
;   useOozeShield,0
;   oozeShieldExtruder,999
;   oozeShieldOffset,2
;   oozeShieldOutlines,1
;   oozeShieldSidewallShape,1
;   oozeShieldSidewallAngle,30
;   oozeShieldSpeedMultiplier,1
;   infillExtruder,0
;   internalInfillPattern,Rectilinear
;   externalInfillPattern,Rectilinear
;   infillPercentage,0
;   outlineOverlapPercentage,25
;   infillExtrusionWidthPercentage,100
;   minInfillLength,1
;   infillLayerInterval,1
;   internalInfillAngles,45,-45
;   overlapInternalInfillAngles,0
;   externalInfillAngles,45,-45
;   generateSupport,0
;   supportExtruder,0
;   supportInfillPercentage,35
;   supportExtraInflation,0
;   supportBaseLayers,2
;   denseSupportExtruder,0
;   denseSupportLayers,4
;   denseSupportInfillPercentage,70
;   supportLayerInterval,1
;   supportHorizontalPartOffset,0.2
;   supportUpperSeparationLayers,1
;   supportLowerSeparationLayers,1
;   supportType,1
;   supportGridSpacing,2
;   maxOverhangAngle,45
;   supportAngles,0
;   temperatureName,Primary Extruder,Heated Bed
;   temperatureNumber,0,0
;   temperatureSetpointCount,2,1
;   temperatureSetpointLayers,1,2,1
;   temperatureSetpointTemperatures,215,210,55
;   temperatureStabilizeAtStartup,1,1
;   temperatureHeatedBed,0,1
;   temperatureRelayBetweenLayers,0,0
;   temperatureRelayBetweenLoops,0,0
;   fanLayers,1,2
;   fanSpeeds,0,100
;   blipFanToFullPower,1
;   adjustSpeedForCooling,1
;   minSpeedLayerTime,15
;   minCoolingSpeedSlowdown,20
;   increaseFanForCooling,0
;   minFanLayerTime,45
;   maxCoolingFanSpeed,100
;   increaseFanForBridging,1
;   bridgingFanSpeed,100
;   use5D,1
;   relativeEdistances,1
;   allowEaxisZeroing,1
;   independentExtruderAxes,0
;   includeM10123,0
;   stickySupport,1
;   applyToolheadOffsets,0
;   gcodeXoffset,0
;   gcodeYoffset,0
;   gcodeZoffset,0
;   overrideMachineDefinition,1
;   machineTypeOverride,0
;   strokeXoverride,250
;   strokeYoverride,210
;   strokeZoverride,210
;   originOffsetXoverride,0
;   originOffsetYoverride,0
;   originOffsetZoverride,0
;   homeXdirOverride,-1
;   homeYdirOverride,-1
;   homeZdirOverride,-1
;   flipXoverride,1
;   flipYoverride,-1
;   flipZoverride,1
;   toolheadOffsets,0,0|0,0|0,0|0,0|0,0|0,0
;   overrideFirmwareConfiguration,0
;   firmwareTypeOverride,RepRap (Marlin/Repetier/Sprinter)
;   GPXconfigOverride,r2
;   baudRateOverride,115200
;   overridePrinterModels,0
;   printerModelsOverride
;   startingGcode,; =========================================================================================================,;,; start script for S3d for CaribouDuet,;,; =========================================================================================================,;,if !move.axes[0].homed || !move.axes[1].homed || !move.axes[2].homed,  G28                                         ; home all axis without mesh bed level,G0 X60 Y-3 Z80                         ; move extruder above bed,;                                                   keep extruder in front for cleaning and checking,;,M104 S160 T0                            ; pre-heat extruder to 160C,M140 S[bed0_temperature]      ; this will take the layer 1 temperature for bed 0,M190 S[bed0_temperature]      ; wait for bed temp,;,G29                                           ; mesh bed leveling using defined mesh grid,G0 X0 Y-3 Z0.6                         ; go outside print area,;,M104 S[extruder0_temperature] ; set extruder temperature,M109 S[extruder0_temperature] ; wait for extruder temp,;,; =========================================================================================================,;,M98 P"0:/sys/primeLine.g"     ; execute primeline macro,;,G92 E0.0                                ; set extruder position,;,M572 D0 S0.07                      ; set pressure advance,;,; =========================================================================================================
;   layerChangeGcode,G1 [current_Z_position] F10000;
;   retractionGcode,
;   toolChangeGcode,
;   endingGcode,; =========================================================================================================,;,; generic end script all slicers for CaribouDuet,;,; =========================================================================================================,;,G1 F1000.0               ; set feed rate,G1 E-2                   ; retract 2mm,G10 P0 S-274 R-274       ; turn off extruder,M140 S0 R0               ; set bed temperature to 0C,M140 S-274               ; set bed temperature to 0K to turn it off,M107                     ; turn off fan,G1 X0 Y200 F7200         ; home XY axis,M84 XY                   ; disable motors,;,; =========================================================================================================,
;   exportFileFormat,gcode
;   celebration,0
;   celebrationSong,Indiana
;   postProcessing,{REPLACE "; outer perimeter\n" "; outer perimeter\nM204 S800\n"},{REPLACE "; inner perimeter\n" "; inner perimeter\nM204 S1000\n"},{REPLACE "; solid layer\n" "; solid layer\nM204 S1000\n"},{REPLACE "; infill\n" "; infill\nM204 S1000\n"}
;   defaultSpeed,4800
;   outlineUnderspeed,0.3
;   solidInfillUnderspeed,1
;   supportUnderspeed,0.5
;   rapidXYspeed,9498
;   rapidZspeed,3600
;   minBridgingArea,50
;   bridgingExtraInflation,1
;   bridgingExtrusionMultiplier,0.8
;   bridgingSpeedMultiplier,1.2
;   useFixedBridgingAngle,0
;   fixedBridgingAngle,0
;   applyBridgingToPerimeters,0
;   filamentDiameters,1.74|1.75|1.75|1.75|1.75|1.75
;   filamentPricesPerKg,16|46|46|46|46|46
;   filamentDensities,1.25|1.25|1.25|1.25|1.25|1.25
;   useMinPrintHeight,0
;   minPrintHeight,0
;   useMaxPrintHeight,0
;   maxPrintHeight,0.2
;   useDiaphragm,0
;   diaphragmLayerInterval,20
;   robustSlicing,1
;   mergeAllIntoSolid,0
;   onlyRetractWhenCrossingOutline,0
;   retractBetweenLayers,1
;   useRetractionMinTravel,1
;   retractionMinTravel,1
;   retractWhileWiping,1
;   onlyWipeOutlines,1
;   avoidCrossingOutline,1
;   maxMovementDetourFactor,100
;   toolChangeRetractionDistance,12
;   toolChangeExtraRestartDistance,-0.5
;   toolChangeRetractionSpeed,600
;   externalThinWallType,1
;   internalThinWallType,2
;   thinWallAllowedOverlapPercentage,40
;   singleExtrusionMinLength,1
;   singleExtrusionMinPrintingWidthPercentage,20
;   singleExtrusionMaxPrintingWidthPercentage,200
;   singleExtrusionEndpointExtension,0.2
;   horizontalSizeCompensation,0
G90
M83
M106 S255
G4 P500
M106 S0
;
; start script for S3d for CaribouDuet
;
;
if !move.axes[0].homed || !move.axes[1].homed || !move.axes[2].homed
  G28                                         ; home all axis without mesh bed level
G0 X60 Y-3 Z80                         ; move extruder above bed
;                                  keep extruder in front for cleaning and checking
;
M104 S160 T0                            ; pre-heat extruder to 160C
M140 S55      ; this will take the layer 1 temperature for bed 0
M190 S55      ; wait for bed temp
;
G29                                           ; mesh bed leveling using defined mesh grid
G0 X0 Y-3 Z0.6                         ; go outside print area
;
M104 S215 ; set extruder temperature
M109 S215 ; wait for extruder temp
;
;
M98 P"0:/sys/primeLine.g"     ; execute primeline macro
;
G92 E0.0                                ; set extruder position
;
M572 D0 S0.07                      ; set pressure advance
;
G1 E-0.4000 F1500
G1 Z0.800 F3600
; process Process1
; layer 1, Z = 0.200
G1 0.200 F10000;
T0
; tool H0.200 W0.388
; skirt
G1 X83.484 Y64.765 F9498
G1 Z0.200 F3600
G1 E0.4000 F450
G1 X83.793 Y64.373 E0.0158 F2880
G1 X83.803 Y64.361 E0.0005
G1 X83.893 Y64.260 E0.0043
G1 X83.904 Y64.248 E0.0005
G1 X84.253 Y63.899 E0.0156
G1 X84.265 Y63.888 E0.0005
G1 X84.368 Y63.796 E0.0044
G1 X84.381 Y63.786 E0.0005
G1 X84.774 Y63.477 E0.0159
G1 X84.788 Y63.467 E0.0005
G1 X84.901 Y63.389 E0.0044
G1 X84.915 Y63.380 E0.0005
G1 X85.343 Y63.121 E0.0158
G1 X85.358 Y63.113 E0.0005
G1 X85.480 Y63.049 E0.0044
G1 X85.495 Y63.042 E0.0005
G1 X85.951 Y62.837 E0.0159
G1 X85.966 Y62.830 E0.0005
G1 X86.095 Y62.781 E0.0044
G1 X86.111 Y62.776 E0.0005
G1 X86.588 Y62.627 E0.0158
G1 X86.605 Y62.623 E0.0005
G1 X86.738 Y62.590 E0.0044
G1 X86.754 Y62.586 E0.0005
G1 X87.239 Y62.497 E0.0156
G1 X87.255 Y62.495 E0.0005
G1 X87.390 Y62.478 E0.0043
G1 X87.407 Y62.477 E0.0005
G1 X87.877 Y62.448 E0.0149
G1 X87.885 Y62.447 E0.0003
G1 X87.956 Y62.445 E0.0022
G1 X87.965 Y62.445 E0.0003
G1 X165.939 Y62.445 E2.4715
G1 X166.143 Y62.529 E0.0070
G1 X167.471 Y63.857 E0.0595
G1 X167.555 Y64.061 E0.0070
G1 X167.555 Y145.939 E2.5952
G1 X167.471 Y146.143 E0.0070
G1 X166.143 Y147.471 E0.0595
G1 X165.939 Y147.555 E0.0070
G1 X84.061 Y147.555 E2.5952
G1 X83.857 Y147.471 E0.0070
G1 X82.529 Y146.143 E0.0595
G1 X82.445 Y145.939 E0.0070
G1 X82.445 Y67.959 E2.4716
G1 X82.445 Y67.951 E0.0003
G1 X82.448 Y67.880 E0.0022
G1 X82.448 Y67.871 E0.0003
G1 X82.477 Y67.405 E0.0148
G1 X82.479 Y67.389 E0.0005
G1 X82.495 Y67.252 E0.0044
G1 X82.498 Y67.235 E0.0005
G1 X82.589 Y66.744 E0.0158
G1 X82.593 Y66.727 E0.0005
G1 X82.626 Y66.594 E0.0044
G1 X82.630 Y66.578 E0.0005
G1 X82.780 Y66.100 E0.0158
G1 X82.786 Y66.085 E0.0005
G1 X82.835 Y65.956 E0.0044
G1 X82.841 Y65.940 E0.0005
G1 X83.047 Y65.485 E0.0159
G1 X83.055 Y65.470 E0.0005
G1 X83.119 Y65.348 E0.0044
G1 X83.127 Y65.333 E0.0005
G1 X83.387 Y64.906 E0.0158
G1 X83.396 Y64.892 E0.0005
G1 X83.474 Y64.779 E0.0044
G1 X83.484 Y64.765 E0.0005
G1 X83.778 Y64.990 F9498
G1 X84.080 Y64.606 E0.0155 F2880
G1 X84.083 Y64.602 E0.0002
G1 X84.166 Y64.509 E0.0039
G1 X84.170 Y64.505 E0.0002
G1 X84.510 Y64.165 E0.0153
G1 X84.514 Y64.161 E0.0002
G1 X84.609 Y64.077 E0.0040
G1 X84.613 Y64.073 E0.0002
G1 X84.998 Y63.772 E0.0155
G1 X85.003 Y63.769 E0.0002
G1 X85.107 Y63.697 E0.0040
G1 X85.112 Y63.694 E0.0002
G1 X85.530 Y63.441 E0.0155
G1 X85.535 Y63.438 E0.0002
G1 X85.647 Y63.379 E0.0040
G1 X85.652 Y63.377 E0.0002
G1 X86.098 Y63.176 E0.0155
G1 X86.103 Y63.174 E0.0002
G1 X86.221 Y63.129 E0.0040
G1 X86.226 Y63.127 E0.0002
G1 X86.693 Y62.982 E0.0155
G1 X86.699 Y62.981 E0.0002
G1 X86.821 Y62.950 E0.0040
G1 X86.827 Y62.949 E0.0002
G1 X87.300 Y62.862 E0.0153
G1 X87.306 Y62.862 E0.0002
G1 X87.430 Y62.846 E0.0040
G1 X87.435 Y62.846 E0.0002
G1 X87.897 Y62.817 E0.0147
G1 X87.900 Y62.817 E0.0001
G1 X87.965 Y62.815 E0.0021
G1 X87.968 Y62.815 E0.0001
G1 X165.865 Y62.815 E2.4690
G1 X165.933 Y62.843 E0.0023
G1 X167.157 Y64.067 E0.0548
G1 X167.185 Y64.135 E0.0023
G1 X167.185 Y145.865 E2.5905
G1 X167.157 Y145.933 E0.0023
G1 X165.933 Y147.157 E0.0548
G1 X165.865 Y147.185 E0.0023
G1 X84.135 Y147.185 E2.5905
G1 X84.067 Y147.157 E0.0023
G1 X82.843 Y145.933 E0.0548
G1 X82.815 Y145.865 E0.0023
G1 X82.815 Y67.962 E2.4692
G1 X82.815 Y67.959 E0.0001
G1 X82.817 Y67.894 E0.0021
G1 X82.817 Y67.891 E0.0001
G1 X82.846 Y67.434 E0.0145
G1 X82.847 Y67.428 E0.0002
G1 X82.862 Y67.303 E0.0040
G1 X82.863 Y67.297 E0.0002
G1 X82.952 Y66.817 E0.0155
G1 X82.953 Y66.811 E0.0002
G1 X82.984 Y66.688 E0.0040
G1 X82.985 Y66.683 E0.0002
G1 X83.131 Y66.217 E0.0155
G1 X83.133 Y66.211 E0.0002
G1 X83.178 Y66.093 E0.0040
G1 X83.180 Y66.088 E0.0002
G1 X83.382 Y65.642 E0.0155
G1 X83.384 Y65.637 E0.0002
G1 X83.443 Y65.526 E0.0040
G1 X83.446 Y65.521 E0.0002
G1 X83.700 Y65.103 E0.0155
G1 X83.703 Y65.098 E0.0002
G1 X83.775 Y64.994 E0.0040
G1 X83.778 Y64.990 E0.0002
G1 E-0.4000 F1500
G1 Z0.800 F3600
; outer perimeter
M204 S800
G1 X85.692 Y66.400 F9498
G1 X85.695 Y66.402 F9498
G1 Z0.200 F3600
G1 E0.4000 F1500
G1 X85.904 Y66.136 E0.0107 F864
G1 X86.140 Y65.900 E0.0106
G1 X86.406 Y65.691 E0.0107
G1 X86.697 Y65.516 E0.0107
G1 X87.006 Y65.377 E0.0107
G1 X87.329 Y65.276 E0.0107
G1 X87.657 Y65.216 E0.0106
G1 X88.006 Y65.194 E0.0111
G1 X164.806 Y65.194 E2.4342
G1 X164.806 Y144.806 E2.5234
G1 X85.194 Y144.806 E2.5234
G1 X85.195 Y68.001 E2.4344
G1 X85.216 Y67.657 E0.0109
G1 X85.278 Y67.324 E0.0107
G1 X85.379 Y67.000 E0.0107
G1 X85.519 Y66.692 E0.0107
G1 X85.695 Y66.402 E0.0107
G1 E-0.4000 F1500
G1 Z1.000 F3600
; layer 2, Z = 0.400
M104 S210 T0
M106 S255
G1 0.400 F10000;
; tool H0.200 W0.370
G1 X85.683 Y66.401 F9498
G1 Z0.400 F3600
G1 E0.4000 F1500
G1 X85.893 Y66.133 E0.0103 F1269
G1 X86.134 Y65.893 E0.0103
G1 X86.401 Y65.683 E0.0103
G1 X86.693 Y65.507 E0.0103
G1 X87.003 Y65.368 E0.0103
G1 X87.328 Y65.267 E0.0103
G1 X87.662 Y65.206 E0.0103
G1 X88.006 Y65.185 E0.0104
G1 X164.815 Y65.185 E2.3186
G1 X164.815 Y144.815 E2.4038
G1 X85.185 Y144.815 E2.4038
G1 X85.186 Y67.989 E2.3191
G1 X85.206 Y67.663 E0.0099
G1 X85.267 Y67.328 E0.0103
G1 X85.368 Y67.003 E0.0103
G1 X85.507 Y66.693 E0.0103
G1 X85.683 Y66.401 E0.0103
G1 E-0.4000 F1500
G1 Z1.200 F3600
; layer 3, Z = 0.600
G1 0.600 F10000;
G1 X85.683 Y66.402 F9498
G1 Z0.600 F3600
G1 E0.4000 F1500
G1 X85.893 Y66.133 E0.0103 F1269
G1 X86.133 Y65.893 E0.0103
G1 X86.402 Y65.683 E0.0103
G1 X86.693 Y65.507 E0.0103
G1 X87.004 Y65.368 E0.0103
G1 X87.329 Y65.267 E0.0103
G1 X87.664 Y65.206 E0.0103
G1 X88.006 Y65.185 E0.0103
G1 X164.815 Y65.185 E2.3186
G1 X164.815 Y144.815 E2.4038
G1 X85.185 Y144.815 E2.4038
G1 X85.185 Y68.006 E2.3186
G1 X85.206 Y67.664 E0.0103
G1 X85.267 Y67.329 E0.0103
G1 X85.368 Y67.004 E0.0103
G1 X85.507 Y66.693 E0.0103
G1 X85.683 Y66.402 E0.0103
G1 E-0.4000 F1500
G1 Z1.400 F3600
; layer 4, Z = 0.800
G1 0.800 F10000;
G1 X85.683 Y66.402 F9498
G1 Z0.800 F3600
G1 E0.4000 F1500
G1 X85.893 Y66.134 E0.0103 F1269
G1 X86.134 Y65.893 E0.0103
G1 X86.402 Y65.683 E0.0103
G1 X86.694 Y65.507 E0.0103
G1 X87.004 Y65.367 E0.0103
G1 X87.330 Y65.266 E0.0103
G1 X87.665 Y65.205 E0.0103
G1 X88.005 Y65.185 E0.0103
G1 X164.815 Y65.185 E2.3186
G1 X164.815 Y144.815 E2.4038
G1 X85.185 Y144.815 E2.4038
G1 X85.185 Y68.005 E2.3186
G1 X85.205 Y67.665 E0.0103
G1 X85.266 Y67.330 E0.0103
G1 X85.367 Y67.004 E0.0103
G1 X85.507 Y66.694 E0.0103
G1 X85.683 Y66.402 E0.0103
G1 E-0.4000 F1500
G1 Z1.600 F3600
; layer 5, Z = 1.000
G1 1.000 F10000;
G1 X85.683 Y66.402 F9498
G1 Z1.000 F3600
G1 E0.4000 F1500
G1 X85.893 Y66.133 E0.0103 F1269
G1 X86.133 Y65.893 E0.0103
G1 X86.402 Y65.683 E0.0103
G1 X86.694 Y65.507 E0.0103
G1 X87.005 Y65.367 E0.0103
G1 X87.331 Y65.266 E0.0103
G1 X87.666 Y65.205 E0.0103
G1 X88.006 Y65.185 E0.0103
G1 X164.815 Y65.185 E2.3186
G1 X164.815 Y144.815 E2.4038
G1 X85.185 Y144.815 E2.4038
G1 X85.185 Y68.006 E2.3186
G1 X85.205 Y67.666 E0.0103
G1 X85.266 Y67.331 E0.0103
G1 X85.367 Y67.005 E0.0103
G1 X85.507 Y66.694 E0.0103
G1 X85.683 Y66.402 E0.0103
G1 E-0.4000 F1500
G1 Z1.800 F3600
; layer 6, Z = 1.200
G1 1.200 F10000;
G1 X85.683 Y66.403 F9498
G1 Z1.200 F3600
G1 E0.4000 F1500
G1 X85.893 Y66.134 E0.0103 F1269
