; G-Code generated by Simplify3D(R) Version 4.1.2
; Jan 29, 2021 at 11:34:29 PM
; Settings Summary
;   processName,Process1
;   applyToModels,Hollow_Pyramid
;   profileName,CariboDuet PLA
;   profileVersion,2021-01-27 00:14:40
;   baseProfile,Default
;   printMaterial,PLA
;   printQuality,0.2
;   printExtruders,
;   extruderName,Primary Extruder
;   extruderToolheadNumber,0
;   extruderDiameter,0.4
;   extruderAutoWidth,0
;   extruderWidth,0.37
;   extrusionMultiplier,0.95
;   extruderUseRetract,1
;   extruderRetractionDistance,0.2
;   extruderExtraRestartDistance,0
;   extruderRetractionZLift,0.5
;   extruderRetractionSpeed,1200
;   extruderUseCoasting,0
;   extruderCoastingDistance,0.05
;   extruderUseWipe,0
;   extruderWipeDistance,2
;   primaryExtruder,0
;   layerHeight,0.2
;   topSolidLayers,4
;   bottomSolidLayers,4
;   perimeterOutlines,3
;   printPerimetersInsideOut,0
;   startPointOption,3
;   startPointOriginX,0
;   startPointOriginY,300
;   sequentialIslands,0
;   spiralVaseMode,0
;   firstLayerHeightPercentage,100
;   firstLayerWidthPercentage,105
;   firstLayerUnderspeed,0.3
;   useRaft,0
;   raftExtruder,0
;   raftTopLayers,3
;   raftBaseLayers,2
;   raftOffset,8
;   raftSeparationDistance,0.11
;   raftTopInfill,100
;   aboveRaftSpeedMultiplier,0.3
;   useSkirt,1
;   skirtExtruder,0
;   skirtLayers,1
;   skirtOutlines,2
;   skirtOffset,2
;   usePrimePillar,0
;   primePillarExtruder,999
;   primePillarWidth,12
;   primePillarLocation,7
;   primePillarSpeedMultiplier,1
;   useOozeShield,0
;   oozeShieldExtruder,999
;   oozeShieldOffset,2
;   oozeShieldOutlines,1
;   oozeShieldSidewallShape,1
;   oozeShieldSidewallAngle,30
;   oozeShieldSpeedMultiplier,1
;   infillExtruder,0
;   internalInfillPattern,Grid
;   externalInfillPattern,Rectilinear
;   infillPercentage,20
;   outlineOverlapPercentage,25
;   infillExtrusionWidthPercentage,105
;   minInfillLength,1
;   infillLayerInterval,1
;   internalInfillAngles,45,-45
;   overlapInternalInfillAngles,1
;   externalInfillAngles,45,-45
;   generateSupport,0
;   supportExtruder,0
;   supportInfillPercentage,15
;   supportExtraInflation,0.3
;   supportBaseLayers,1
;   denseSupportExtruder,0
;   denseSupportLayers,1
;   denseSupportInfillPercentage,50
;   supportLayerInterval,1
;   supportHorizontalPartOffset,0.25
;   supportUpperSeparationLayers,1
;   supportLowerSeparationLayers,1
;   supportType,0
;   supportGridSpacing,2
;   maxOverhangAngle,45
;   supportAngles,0
;   temperatureName,Primary Extruder,Heated Bed
;   temperatureNumber,0,0
;   temperatureSetpointCount,2,1
;   temperatureSetpointLayers,1,2,1
;   temperatureSetpointTemperatures,210,205,55
;   temperatureStabilizeAtStartup,1,1
;   temperatureHeatedBed,0,1
;   fanLayers,1,2
;   fanSpeeds,0,80
;   blipFanToFullPower,0
;   adjustSpeedForCooling,1
;   minSpeedLayerTime,15
;   minCoolingSpeedSlowdown,20
;   increaseFanForCooling,0
;   minFanLayerTime,45
;   maxCoolingFanSpeed,100
;   increaseFanForBridging,1
;   bridgingFanSpeed,100
;   use5D,1
;   relativeEdistances,1
;   allowEaxisZeroing,1
;   independentExtruderAxes,0
;   includeM10123,0
;   stickySupport,1
;   applyToolheadOffsets,0
;   gcodeXoffset,0
;   gcodeYoffset,0
;   gcodeZoffset,0
;   overrideMachineDefinition,1
;   machineTypeOverride,0
;   strokeXoverride,250
;   strokeYoverride,210
;   strokeZoverride,210
;   originOffsetXoverride,0
;   originOffsetYoverride,0
;   originOffsetZoverride,0
;   homeXdirOverride,-1
;   homeYdirOverride,-1
;   homeZdirOverride,-1
;   flipXoverride,1
;   flipYoverride,-1
;   flipZoverride,1
;   toolheadOffsets,0,0|0,0|0,0|0,0|0,0|0,0
;   overrideFirmwareConfiguration,0
;   firmwareTypeOverride,RepRap (Marlin/Repetier/Sprinter)
;   GPXconfigOverride,r2
;   baudRateOverride,115200
;   overridePrinterModels,0
;   printerModelsOverride
;   startingGcode,; =========================================================================================================,;,; start script for S3d for CaribouDuet,;,; =========================================================================================================,;,G28 W                         ; home all axis without mesh bed level,G0 X60 Y-3 Z80                ; move extruder above bed, keep extruder in front for cleaning and checking,;,M104 S160 T0                  ; pre-heat extruder to 160?C,M140 S[bed0_temperature]      ; this will take the layer 1 temperature for bed 0,M190 S[bed0_temperature]      ; wait for bed temp,;,G29                           ; mesh bed leveling using defined mesh grid,G0 X0 Y-3 Z0.6                ; go outside print area,;,M104 S[extruder0_temperature] ; set extruder temperature,M109 S[extruder0_temperature] ; wait for extruder temp,;,; =========================================================================================================,;,; ,M98 P"0:/sys/primeLine.g"     ; execute primeline macro,;,G92 E0.0                      ; set extruder position,;,M572 D0 S0.07                 ; set pressure advance,;,; =========================================================================================================,
;   layerChangeGcode,G1 [current_Z_position] F10000;
;   retractionGcode,
;   toolChangeGcode,
;   endingGcode,M104 S0 ; turn off temperature,M140 S0 ; turn off heatbed,M107 ; turn off fan,G1 F1000.0 ; set feed rate,G1 E-3 ; retract,G1 X0 Y200 F7200 ; home XY axis,,M84 ; disable motors
;   exportFileFormat,gcode
;   celebration,0
;   celebrationSong,Funky Town
;   postProcessing,{REPLACE "; outer perimeter\n" "; outer perimeter\nM204 S600\n"},{REPLACE "; inner perimeter\n" "; inner perimeter\nM204 S1000\n"},{REPLACE "; solid layer\n" "; solid layer\nM204 S1200\n"},{REPLACE "; infill\n" "; infill\nM204 S1500\n"}
;   defaultSpeed,4800
;   outlineUnderspeed,0.3
;   solidInfillUnderspeed,0.8
;   supportUnderspeed,0.4
;   rapidXYspeed,8400
;   rapidZspeed,1800
;   minBridgingArea,5
;   bridgingExtraInflation,1
;   bridgingExtrusionMultiplier,1
;   bridgingSpeedMultiplier,0.95
;   useFixedBridgingAngle,0
;   fixedBridgingAngle,0
;   applyBridgingToPerimeters,0
;   filamentDiameters,1.75|1.75|1.75|1.75|1.75|1.75
;   filamentPricesPerKg,24|46|46|46|46|46
;   filamentDensities,1.25|1.25|1.25|1.25|1.25|1.25
;   useMinPrintHeight,0
;   minPrintHeight,0
;   useMaxPrintHeight,0
;   maxPrintHeight,0
;   useDiaphragm,0
;   diaphragmLayerInterval,20
;   robustSlicing,1
;   mergeAllIntoSolid,0
;   onlyRetractWhenCrossingOutline,0
;   retractBetweenLayers,0
;   useRetractionMinTravel,1
;   retractionMinTravel,1
;   retractWhileWiping,1
;   onlyWipeOutlines,1
;   avoidCrossingOutline,1
;   maxMovementDetourFactor,3
;   toolChangeRetractionDistance,12
;   toolChangeExtraRestartDistance,-0.5
;   toolChangeRetractionSpeed,600
;   externalThinWallType,1
;   internalThinWallType,1
;   thinWallAllowedOverlapPercentage,25
;   singleExtrusionMinLength,1
;   singleExtrusionMinPrintingWidthPercentage,50
;   singleExtrusionMaxPrintingWidthPercentage,200
;   singleExtrusionEndpointExtension,0.2
;   horizontalSizeCompensation,0
G90
M83
M106 S0
;
; start script for S3d for CaribouDuet
;
;
 if !move.axes[0].homed || !move.axes[1].homed || !move.axes[2].homed
    G28                       ; home all axis without mesh bed level
G0 X60 Y-3 Z80                ; move extruder above bed,
;                               keep extruder in front for cleaning and checking
M104 S160 T0                  ; pre-heat extruder to 160?C
M140 S55      ; this will take the layer 1 temperature for bed 0
M190 S55      ; wait for bed temp
;
G29                           ; mesh bed leveling using defined mesh grid
G0 X0 Y-3 Z0.6                ; go outside print area
;
M104 S210 ; set extruder temperature
M109 S210 ; wait for extruder temp
;
;
;
M98 P"0:/sys/primeLine.g"     ; execute primeline macro
;
G92 E0.0                      ; set extruder position
;
M572 D0 S0.07                 ; set pressure advance
;
; process Process1
; layer 1, Z = 0.200
T0
G1 E-0.2000 F1200
G1 0.200 F10000;
; feature skirt
; tool H0.200 W0.389
G1 Z0.500 F1800
G1 X104.938 Y126.575 F8400
G1 Z0.200 F1800
G1 E0.2000 F1200
G1 X103.425 Y125.062 E0.0657 F1440
G1 X103.425 Y84.938 E1.2314
G1 X104.938 Y83.425 E0.0657
G1 X145.062 Y83.425 E1.2314
G1 X146.575 Y84.938 E0.0657
G1 X146.575 Y125.062 E1.2314
G1 X145.062 Y126.575 E0.0657
G1 X104.938 Y126.575 E1.2314
G1 X105.099 Y126.187 F8400
G1 X103.813 Y124.901 E0.0558 F1440
G1 X103.813 Y85.099 E1.2215
G1 X105.099 Y83.813 E0.0558
G1 X144.901 Y83.813 E1.2215
G1 X146.186 Y85.099 E0.0558
G1 X146.186 Y124.901 E1.2215
G1 X144.901 Y126.187 E0.0558
G1 X105.099 Y126.187 E1.2215
G1 E-0.2000 F1200
; feature outer perimeter
G1 Z0.700 F1800
G1 X106.202 Y123.798 F8400
G1 Z0.200 F1800
G1 E0.2000 F1200
G1 X106.202 Y86.202 E1.1538 F432
G1 X143.798 Y86.202 E1.1538
G1 X143.798 Y123.798 E1.1538
G1 X106.202 Y123.798 E1.1538
; feature inner perimeter
G1 X106.590 Y123.410 F8400
G1 X106.590 Y86.590 E1.1299 F936
G1 X143.410 Y86.590 E1.1299
G1 X143.410 Y123.410 E1.1299
G1 X106.590 Y123.410 E1.1299
G1 X106.979 Y123.021 F8400
G1 X106.979 Y86.979 E1.1061 F936
G1 X143.021 Y86.979 E1.1061
G1 X143.021 Y123.021 E1.1061
G1 X106.979 Y123.021 E1.1061
; feature solid layer
G1 X107.567 Y122.730 F8400
G1 X107.270 Y122.433 E0.0129 F1152
G1 X107.270 Y121.884 E0.0169
G1 X108.116 Y122.730 E0.0367
G1 X108.665 Y122.730 E0.0169
G1 X107.270 Y121.335 E0.0605
G1 X107.270 Y120.785 E0.0169
G1 X109.215 Y122.730 E0.0844
G1 X109.764 Y122.730 E0.0169
G1 X107.270 Y120.236 E0.1082
G1 X107.270 Y119.686 E0.0169
G1 X110.314 Y122.730 E0.1321
G1 X110.863 Y122.730 E0.0169
G1 X107.270 Y119.137 E0.1559
G1 X107.270 Y118.587 E0.0169
G1 X111.413 Y122.730 E0.1798
G1 X111.962 Y122.730 E0.0169
G1 X107.270 Y118.038 E0.2036
G1 X107.270 Y117.489 E0.0169
G1 X112.511 Y122.730 E0.2275
G1 X113.061 Y122.730 E0.0169
G1 X107.270 Y116.939 E0.2513
G1 X107.270 Y116.390 E0.0169
G1 X113.610 Y122.730 E0.2752
G1 X114.160 Y122.730 E0.0169
G1 X107.270 Y115.840 E0.2990
G1 X107.270 Y115.291 E0.0169
G1 X114.709 Y122.730 E0.3228
G1 X115.259 Y122.730 E0.0169
G1 X107.270 Y114.741 E0.3467
G1 X107.270 Y114.192 E0.0169
G1 X115.808 Y122.730 E0.3705
G1 X116.357 Y122.730 E0.0169
G1 X107.270 Y113.643 E0.3944
G1 X107.270 Y113.093 E0.0169
G1 X116.907 Y122.730 E0.4182
G1 X117.456 Y122.730 E0.0169
G1 X107.270 Y112.544 E0.4421
G1 X107.270 Y111.994 E0.0169
G1 X118.006 Y122.730 E0.4659
G1 X118.555 Y122.730 E0.0169
G1 X107.270 Y111.445 E0.4898
G1 X107.270 Y110.895 E0.0169
G1 X119.105 Y122.730 E0.5136
G1 X119.654 Y122.730 E0.0169
G1 X107.270 Y110.346 E0.5375
G1 X107.270 Y109.797 E0.0169
G1 X120.203 Y122.730 E0.5613
G1 X120.753 Y122.730 E0.0169
G1 X107.270 Y109.247 E0.5851
G1 X107.270 Y108.698 E0.0169
G1 X121.302 Y122.730 E0.6090
G1 X121.852 Y122.730 E0.0169
G1 X107.270 Y108.148 E0.6328
G1 X107.270 Y107.599 E0.0169
G1 X122.401 Y122.730 E0.6567
G1 X122.950 Y122.730 E0.0169
G1 X107.270 Y107.050 E0.6805
G1 X107.270 Y106.500 E0.0169
G1 X123.500 Y122.730 E0.7044
G1 X124.049 Y122.730 E0.0169
G1 X107.270 Y105.951 E0.7282
G1 X107.270 Y105.401 E0.0169
G1 X124.599 Y122.730 E0.7521
G1 X125.148 Y122.730 E0.0169
G1 X107.270 Y104.852 E0.7759
G1 X107.270 Y104.302 E0.0169
G1 X125.698 Y122.730 E0.7997
G1 X126.247 Y122.730 E0.0169
G1 X107.270 Y103.753 E0.8236
G1 X107.270 Y103.204 E0.0169
G1 X126.796 Y122.730 E0.8474
G1 X127.346 Y122.730 E0.0169
G1 X107.270 Y102.654 E0.8713
G1 X107.270 Y102.105 E0.0169
G1 X127.895 Y122.730 E0.8951
G1 X128.445 Y122.730 E0.0169
G1 X107.270 Y101.555 E0.9190
G1 X107.270 Y101.006 E0.0169
G1 X128.994 Y122.730 E0.9428
G1 X129.544 Y122.730 E0.0169
G1 X107.270 Y100.456 E0.9667
G1 X107.270 Y99.907 E0.0169
G1 X130.093 Y122.730 E0.9905
G1 X130.642 Y122.730 E0.0169
G1 X107.270 Y99.358 E1.0144
G1 X107.270 Y98.808 E0.0169
G1 X131.192 Y122.730 E1.0382
G1 X131.741 Y122.730 E0.0169
G1 X107.270 Y98.259 E1.0620
G1 X107.270 Y97.709 E0.0169
G1 X132.291 Y122.730 E1.0859
G1 X132.840 Y122.730 E0.0169
G1 X107.270 Y97.160 E1.1097
G1 X107.270 Y96.611 E0.0169
G1 X133.389 Y122.730 E1.1336
G1 X133.939 Y122.730 E0.0169
G1 X107.270 Y96.061 E1.1574
G1 X107.270 Y95.512 E0.0169
G1 X134.488 Y122.730 E1.1813
G1 X135.038 Y122.730 E0.0169
G1 X107.270 Y94.962 E1.2051
G1 X107.270 Y94.413 E0.0169
G1 X135.587 Y122.730 E1.2290
G1 X136.137 Y122.730 E0.0169
G1 X107.270 Y93.863 E1.2528
G1 X107.270 Y93.314 E0.0169
G1 X136.686 Y122.730 E1.2767
G1 X137.235 Y122.730 E0.0169
G1 X107.270 Y92.765 E1.3005
G1 X107.270 Y92.215 E0.0169
G1 X137.785 Y122.730 E1.3243
G1 X138.334 Y122.730 E0.0169
G1 X107.270 Y91.666 E1.3482
G1 X107.270 Y91.116 E0.0169
G1 X138.884 Y122.730 E1.3720
G1 X139.433 Y122.730 E0.0169
G1 X107.270 Y90.567 E1.3959
G1 X107.270 Y90.017 E0.0169
G1 X139.983 Y122.730 E1.4197
G1 X140.532 Y122.730 E0.0169
G1 X107.270 Y89.468 E1.4436
G1 X107.270 Y88.919 E0.0169
G1 X141.081 Y122.730 E1.4674
G1 X141.631 Y122.730 E0.0169
G1 X107.270 Y88.369 E1.4913
G1 X107.270 Y87.820 E0.0169
G1 X142.180 Y122.730 E1.5151
G1 X142.730 Y122.730 E0.0169
G1 X107.270 Y87.270 E1.5389
G1 X107.820 Y87.270 E0.0169
G1 X142.730 Y122.180 E1.5151
G1 X142.730 Y121.631 E0.0169
G1 X108.369 Y87.270 E1.4913
G1 X108.919 Y87.270 E0.0169
G1 X142.730 Y121.081 E1.4674
G1 X142.730 Y120.532 E0.0169
G1 X109.468 Y87.270 E1.4436
G1 X110.017 Y87.270 E0.0169
G1 X142.730 Y119.983 E1.4197
G1 X142.730 Y119.433 E0.0169
G1 X110.567 Y87.270 E1.3959
G1 X111.116 Y87.270 E0.0169
G1 X142.730 Y118.884 E1.3720
G1 X142.730 Y118.334 E0.0169
G1 X111.666 Y87.270 E1.3482
G1 X112.215 Y87.270 E0.0169
G1 X142.730 Y117.785 E1.3243
G1 X142.730 Y117.235 E0.0169
G1 X112.765 Y87.270 E1.3005
G1 X113.314 Y87.270 E0.0169
G1 X142.730 Y116.686 E1.2766
G1 X142.730 Y116.137 E0.0169
G1 X113.863 Y87.270 E1.2528
G1 X114.413 Y87.270 E0.0169
G1 X142.730 Y115.587 E1.2290
G1 X142.730 Y115.038 E0.0169
G1 X114.962 Y87.270 E1.2051
G1 X115.512 Y87.270 E0.0169
G1 X142.730 Y114.488 E1.1813
G1 X142.730 Y113.939 E0.0169
G1 X116.061 Y87.270 E1.1574
G1 X116.611 Y87.270 E0.0169
G1 X142.730 Y113.389 E1.1336
G1 X142.730 Y112.840 E0.0169
G1 X117.160 Y87.270 E1.1097
G1 X117.709 Y87.270 E0.0169
G1 X142.730 Y112.291 E1.0859
G1 X142.730 Y111.741 E0.0169
G1 X118.259 Y87.270 E1.0620
G1 X118.808 Y87.270 E0.0169
G1 X142.730 Y111.192 E1.0382
G1 X142.730 Y110.642 E0.0169
G1 X119.358 Y87.270 E1.0144
G1 X119.907 Y87.270 E0.0169
G1 X142.730 Y110.093 E0.9905
G1 X142.730 Y109.543 E0.0169
G1 X120.456 Y87.270 E0.9667
G1 X121.006 Y87.270 E0.0169
G1 X142.730 Y108.994 E0.9428
G1 X142.730 Y108.445 E0.0169
G1 X121.555 Y87.270 E0.9190
G1 X122.105 Y87.270 E0.0169
G1 X142.730 Y107.895 E0.8951
G1 X142.730 Y107.346 E0.0169
G1 X122.654 Y87.270 E0.8713
G1 X123.204 Y87.270 E0.0169
G1 X142.730 Y106.796 E0.8474
G1 X142.730 Y106.247 E0.0169
G1 X123.753 Y87.270 E0.8236
G1 X124.302 Y87.270 E0.0169
G1 X142.730 Y105.698 E0.7997
G1 X142.730 Y105.148 E0.0169
G1 X124.852 Y87.270 E0.7759
G1 X125.401 Y87.270 E0.0169
G1 X142.730 Y104.599 E0.7521
G1 X142.730 Y104.049 E0.0169
G1 X125.951 Y87.270 E0.7282
G1 X126.500 Y87.270 E0.0169
G1 X142.730 Y103.500 E0.7044
G1 X142.730 Y102.950 E0.0169
G1 X127.050 Y87.270 E0.6805
G1 X127.599 Y87.270 E0.0169
G1 X142.730 Y102.401 E0.6567
G1 X142.730 Y101.852 E0.0169
G1 X128.148 Y87.270 E0.6328
G1 X128.698 Y87.270 E0.0169
G1 X142.730 Y101.302 E0.6090
G1 X142.730 Y100.753 E0.0169
G1 X129.247 Y87.270 E0.5851
G1 X129.797 Y87.270 E0.0169
G1 X142.730 Y100.203 E0.5613
G1 X142.730 Y99.654 E0.0169
G1 X130.346 Y87.270 E0.5375
G1 X130.896 Y87.270 E0.0169
G1 X142.730 Y99.104 E0.5136
G1 X142.730 Y98.555 E0.0169
G1 X131.445 Y87.270 E0.4898
G1 X131.994 Y87.270 E0.0169
G1 X142.730 Y98.006 E0.4659
G1 X142.730 Y97.456 E0.0169
G1 X132.544 Y87.270 E0.4421
G1 X133.093 Y87.270 E0.0169
G1 X142.730 Y96.907 E0.4182
G1 X142.730 Y96.357 E0.0169
G1 X133.643 Y87.270 E0.3944
G1 X134.192 Y87.270 E0.0169
G1 X142.730 Y95.808 E0.3705
G1 X142.730 Y95.259 E0.0169
G1 X134.741 Y87.270 E0.3467
G1 X135.291 Y87.270 E0.0169
G1 X142.730 Y94.709 E0.3228
G1 X142.730 Y94.160 E0.0169
G1 X135.840 Y87.270 E0.2990
G1 X136.390 Y87.270 E0.0169
G1 X142.730 Y93.610 E0.2752
G1 X142.730 Y93.061 E0.0169
G1 X136.939 Y87.270 E0.2513
