; G-Code generated by Simplify3D(R) Version 4.1.2
; May 17, 2020 at 9:33:24 PM
; Settings Summary
;   processName,Process1
;   applyToModels,OLED-105 cover (1)
;   profileName,Zaribo PETG
;   profileVersion,2019-10-14 11:04:29
;   baseProfile,Default
;   printMaterial,Das Filament Translucent Green
;   printQuality,Normal 0.2
;   printExtruders,
;   extruderName,Primary Extruder
;   extruderToolheadNumber,0
;   extruderDiameter,0.4
;   extruderAutoWidth,0
;   extruderWidth,0.4
;   extrusionMultiplier,0.95
;   extruderUseRetract,1
;   extruderRetractionDistance,0.6
;   extruderExtraRestartDistance,0
;   extruderRetractionZLift,0
;   extruderRetractionSpeed,1500
;   extruderUseCoasting,0
;   extruderCoastingDistance,0.5
;   extruderUseWipe,0
;   extruderWipeDistance,2
;   primaryExtruder,0
;   layerHeight,0.2
;   topSolidLayers,5
;   bottomSolidLayers,5
;   perimeterOutlines,4
;   printPerimetersInsideOut,1
;   startPointOption,3
;   startPointOriginX,0
;   startPointOriginY,210
;   sequentialIslands,1
;   spiralVaseMode,0
;   firstLayerHeightPercentage,100
;   firstLayerWidthPercentage,105
;   firstLayerUnderspeed,0.15
;   useRaft,0
;   raftExtruder,0
;   raftTopLayers,3
;   raftBaseLayers,2
;   raftOffset,3
;   raftSeparationDistance,0.12
;   raftTopInfill,100
;   aboveRaftSpeedMultiplier,0.3
;   useSkirt,0
;   skirtExtruder,0
;   skirtLayers,1
;   skirtOutlines,2
;   skirtOffset,2
;   usePrimePillar,0
;   primePillarExtruder,999
;   primePillarWidth,12
;   primePillarLocation,7
;   primePillarSpeedMultiplier,1
;   useOozeShield,0
;   oozeShieldExtruder,999
;   oozeShieldOffset,2
;   oozeShieldOutlines,1
;   oozeShieldSidewallShape,1
;   oozeShieldSidewallAngle,30
;   oozeShieldSpeedMultiplier,1
;   infillExtruder,0
;   internalInfillPattern,Rectilinear
;   externalInfillPattern,Rectilinear
;   infillPercentage,35
;   outlineOverlapPercentage,20
;   infillExtrusionWidthPercentage,105
;   minInfillLength,2
;   infillLayerInterval,1
;   internalInfillAngles,45,-45
;   overlapInternalInfillAngles,0
;   externalInfillAngles,45,-45
;   generateSupport,0
;   supportExtruder,0
;   supportInfillPercentage,15
;   supportExtraInflation,0.3
;   supportBaseLayers,1
;   denseSupportExtruder,0
;   denseSupportLayers,1
;   denseSupportInfillPercentage,75
;   supportLayerInterval,1
;   supportHorizontalPartOffset,0.15
;   supportUpperSeparationLayers,1
;   supportLowerSeparationLayers,1
;   supportType,0
;   supportGridSpacing,2
;   maxOverhangAngle,10
;   supportAngles,0,90
;   temperatureName,Primary Extruder,Heated Bed
;   temperatureNumber,0,0
;   temperatureSetpointCount,2,3
;   temperatureSetpointLayers,1,2,1,8,12
;   temperatureSetpointTemperatures,230,230,70,75,80
;   temperatureStabilizeAtStartup,1,1
;   temperatureHeatedBed,0,1
;   fanLayers,1,3
;   fanSpeeds,0,80
;   blipFanToFullPower,0
;   adjustSpeedForCooling,1
;   minSpeedLayerTime,18
;   minCoolingSpeedSlowdown,20
;   increaseFanForCooling,0
;   minFanLayerTime,45
;   maxCoolingFanSpeed,100
;   increaseFanForBridging,1
;   bridgingFanSpeed,100
;   use5D,1
;   relativeEdistances,1
;   allowEaxisZeroing,1
;   independentExtruderAxes,0
;   includeM10123,0
;   stickySupport,1
;   applyToolheadOffsets,0
;   gcodeXoffset,0
;   gcodeYoffset,0
;   gcodeZoffset,0
;   overrideMachineDefinition,1
;   machineTypeOverride,0
;   strokeXoverride,250
;   strokeYoverride,210
;   strokeZoverride,320
;   originOffsetXoverride,0
;   originOffsetYoverride,0
;   originOffsetZoverride,0
;   homeXdirOverride,-1
;   homeYdirOverride,-1
;   homeZdirOverride,-1
;   flipXoverride,1
;   flipYoverride,-1
;   flipZoverride,1
;   toolheadOffsets,0,0|0,0|0,0|0,0|0,0|0,0
;   overrideFirmwareConfiguration,0
;   firmwareTypeOverride,RepRap (Marlin/Repetier/Sprinter)
;   GPXconfigOverride,r2
;   baudRateOverride,115200
;   overridePrinterModels,0
;   printerModelsOverride
;   startingGcode,G90 ; use absolute coordinates,M83 ; extruder relative mode,,;====== start preheat start script ==============================================================,,G28 W; home all without mesh bed level,G0 X60 Y-3 Z80; move extruder above bed, keep extruder in front for cleaning and checking,,M104 S160 T0; pre-heat extruder to 160C ,M140 S[bed0_temperature] ; this will take the layer 1 temperature for bed 0,M190 S[bed0_temperature] ; wait for bed temp,,G80 N7; mesh bed leveling set 3x3, 5x5, or 7x7 in settings menu,,M104S[extruder0_temperature] ; set extruder temperature,M109 S[extruder0_temperature]  ; wait for extruder temp,,;====== end preheat start script ================================================================,,M900 K20 ;,,M205 X8 ; jerk x standard 15,M205 Y8 ; jerk y standard 15,M205 E0.33 ; jerk e axis,M201 E180 ; e axis acceleration,,G1 Y-3.0 F1000.0 ; go outside print area,G92 E0.0,,G1 E8 ; Purge Bubble,G1 X60.0 E7.0  F1000.0 ; intro line,G1 X100.0 E8  F1000.0 ; intro line,G92 E0.0,
;   layerChangeGcode,G1 [current_Z_position] F10000;
;   retractionGcode,
;   toolChangeGcode,
;   endingGcode,M106 S0 ; turn off cooling fan,M104 S0 ; turn off extruder,M140 S0 ; turn off bed,G1 F1000.0 ; set feed rate,G1 E-3 ; retract,G1 X0 Y200 F7200 ; home XY axis,M84 ; disable motors,
;   exportFileFormat,gcode
;   celebration,0
;   celebrationSong,Funky Town
;   postProcessing,{REPLACE "; outer perimeter\n" "; outer perimeter\nM204 S600\n"},{REPLACE "; inner perimeter\n" "; inner perimeter\nM204 S1000\n"},{REPLACE "; solid layer\n" "; solid layer\nM204 S1000\n"},{REPLACE "; infill\n" "; infill\nM204 S1000\n"}
;   defaultSpeed,4800
;   outlineUnderspeed,0.5
;   solidInfillUnderspeed,0.8
;   supportUnderspeed,0.7
;   rapidXYspeed,7200
;   rapidZspeed,1200
;   minBridgingArea,50
;   bridgingExtraInflation,0.5
;   bridgingExtrusionMultiplier,0.95
;   bridgingSpeedMultiplier,0.4
;   useFixedBridgingAngle,1
;   fixedBridgingAngle,0
;   applyBridgingToPerimeters,0
;   filamentDiameters,1.75|1.75|1.75|1.75|1.75|1.75
;   filamentPricesPerKg,24|46|46|46|46|46
;   filamentDensities,1.25|1.25|1.25|1.25|1.25|1.25
;   useMinPrintHeight,0
;   minPrintHeight,0
;   useMaxPrintHeight,0
;   maxPrintHeight,3.97
;   useDiaphragm,0
;   diaphragmLayerInterval,20
;   robustSlicing,1
;   mergeAllIntoSolid,0
;   onlyRetractWhenCrossingOutline,0
;   retractBetweenLayers,1
;   useRetractionMinTravel,0
;   retractionMinTravel,1
;   retractWhileWiping,1
;   onlyWipeOutlines,1
;   avoidCrossingOutline,0
;   maxMovementDetourFactor,3
;   toolChangeRetractionDistance,12
;   toolChangeExtraRestartDistance,-0.5
;   toolChangeRetractionSpeed,600
;   externalThinWallType,1
;   internalThinWallType,1
;   thinWallAllowedOverlapPercentage,20
;   singleExtrusionMinLength,0
;   singleExtrusionMinPrintingWidthPercentage,50
;   singleExtrusionMaxPrintingWidthPercentage,200
;   singleExtrusionEndpointExtension,0.2
;   horizontalSizeCompensation,0
G90
M83
M106 S0
G90 ; use absolute coordinates
M83 ; extruder relative mode
;====== start preheat start script ==============================================================
G28 W; home all without mesh bed level
G0 X60 Y-3 Z80; move extruder above bed
 keep extruder in front for cleaning and checking
M104 S160 T0; pre-heat extruder to 160C 
M140 S70 ; this will take the layer 1 temperature for bed 0
M190 S70 ; wait for bed temp
G80 N7; mesh bed leveling set 3x3
 5x5
 or 7x7 in settings menu
M104S230 ; set extruder temperature
M109 S230  ; wait for extruder temp
;====== end preheat start script ================================================================
M900 K20 ;
M205 X8 ; jerk x standard 15
M205 Y8 ; jerk y standard 15
M205 E0.33 ; jerk e axis
M201 E180 ; e axis acceleration
G1 Y-3.0 F1000.0 ; go outside print area
G92 E0.0
G1 E8 ; Purge Bubble
G1 X60.0 E7.0  F1000.0 ; intro line
G1 X100.0 E8  F1000.0 ; intro line
G92 E0.0
; process Process1
; layer 1, Z = 0.200
T0
G1 E-0.6000 F1500
G1 0.200 F10000;
; feature inner perimeter
; tool H0.200 W0.420
G1 Z0.200 F1200
G1 X50.870 Y136.430 F7200
G1 E0.6000 F1500
G1 X50.870 Y79.753 E1.8804 F540
G1 X199.130 Y79.753 E4.9188
G1 X199.130 Y136.430 E1.8804
G1 X101.477 Y136.430 E3.2398
G1 X101.402 Y136.196 E0.0081
G1 X101.513 Y136.117 E0.0045
G1 X101.936 Y135.764 E0.0183
G1 X102.330 Y135.361 E0.0187
G1 X102.677 Y134.930 E0.0184
G1 X102.978 Y134.473 E0.0182
G1 X103.235 Y133.994 E0.0180
G1 X103.444 Y133.507 E0.0176
G1 X103.564 Y133.166 E0.0120
G1 X103.705 Y132.664 E0.0173
G1 X103.810 Y132.143 E0.0176
G1 X103.880 Y131.616 E0.0176
G1 X103.917 Y131.075 E0.0180
G1 X103.914 Y130.253 E0.0273
G1 X103.867 Y129.688 E0.0188
G1 X103.721 Y128.860 E0.0279
G1 X103.565 Y128.316 E0.0188
G1 X103.368 Y127.800 E0.0183
G1 X103.125 Y127.303 E0.0183
G1 X102.836 Y126.828 E0.0184
G1 X102.510 Y126.391 E0.0181
G1 X102.261 Y126.104 E0.0126
G1 X101.865 Y125.715 E0.0184
G1 X101.421 Y125.358 E0.0189
G1 X100.940 Y125.047 E0.0190
G1 X100.427 Y124.787 E0.0191
G1 X99.890 Y124.582 E0.0191
G1 X99.361 Y124.440 E0.0182
G1 X98.998 Y124.367 E0.0123
G1 X98.451 Y124.301 E0.0183
G1 X97.885 Y124.278 E0.0188
G1 X97.041 Y124.318 E0.0280
G1 X96.481 Y124.399 E0.0188
G1 X95.942 Y124.524 E0.0184
G1 X95.426 Y124.694 E0.0180
G1 X95.075 Y124.842 E0.0126
G1 X94.588 Y125.094 E0.0182
G1 X94.117 Y125.399 E0.0186
G1 X93.680 Y125.748 E0.0186
G1 X93.280 Y126.137 E0.0185
G1 X92.921 Y126.561 E0.0184
G1 X92.750 Y126.805 E0.0099
G1 X92.398 Y126.201 E0.0232
G1 X92.125 Y125.859 E0.0145
G1 X91.928 Y125.661 E0.0093
G1 X91.567 Y125.350 E0.0158
G1 X91.020 Y125.006 E0.0214
G1 X90.478 Y124.766 E0.0197
G1 X89.824 Y124.579 E0.0226
G1 X89.287 Y124.488 E0.0181
G1 X88.713 Y124.443 E0.0191
G1 X83.838 Y124.439 E0.1618
G1 X79.794 Y124.439 E0.1342
G1 X79.794 Y126.101 E0.0552
G1 X79.355 Y125.638 E0.0212
G1 X79.126 Y125.445 E0.0100
G1 X78.788 Y125.200 E0.0138
G1 X78.393 Y124.977 E0.0150
G1 X77.828 Y124.743 E0.0203
G1 X77.405 Y124.616 E0.0147
G1 X76.701 Y124.488 E0.0237
G1 X76.231 Y124.450 E0.0156
G1 X71.182 Y124.434 E0.1675
G1 X71.182 Y129.980 E0.1840
G1 X70.906 Y130.030 E0.0093
G1 X68.824 Y124.439 E0.1979
G1 X64.902 Y124.439 E0.1301
G1 X61.782 Y132.761 E0.2949
G1 X59.492 Y132.761 E0.0759
G1 X63.412 Y127.140 E0.2273
G1 X63.412 Y124.439 E0.0896
G1 X53.220 Y124.439 E0.3381
G1 X53.220 Y128.842 E0.1461
G1 X56.734 Y128.842 E0.1166
G1 X52.809 Y134.420 E0.2263
G1 X52.809 Y136.430 E0.0667
G1 X50.870 Y136.430 E0.0643
G1 E-0.6000 F1500
G1 X65.421 Y136.430 F7200
G1 E0.6000 F1500
G1 X66.010 Y134.695 E0.0608 F540
G1 X67.661 Y134.695 E0.0548
G1 X68.275 Y136.430 E0.0611
G1 X65.421 Y136.430 E0.0947
G1 E-0.6000 F1500
G1 X75.823 Y136.430 F7200
G1 E0.6000 F1500
G1 X75.823 Y134.918 E0.0502 F540
G1 X76.070 Y134.850 E0.0085
G1 X77.015 Y136.430 E0.0611
G1 X75.823 Y136.430 E0.0395
G1 E-0.6000 F1500
G1 X79.557 Y131.825 F7200
G1 E0.6000 F1500
G1 X79.362 Y131.539 E0.0115 F540
G1 X79.466 Y131.441 E0.0048
G1 X79.794 Y131.054 E0.0168
G1 X79.794 Y131.752 E0.0232
G1 X79.557 Y131.825 E0.0082
G1 E-0.6000 F1500
G1 X91.696 Y136.199 F7200
G1 E0.6000 F1500
G1 X91.925 Y136.031 E0.0094 F540
G1 X92.275 Y135.713 E0.0157
G1 X92.575 Y135.374 E0.0150
G1 X92.854 Y135.005 E0.0154
G1 X93.068 Y135.280 E0.0116
G1 X93.435 Y135.672 E0.0178
G1 X93.819 Y136.012 E0.0170
G1 X94.064 Y136.204 E0.0103
G1 X93.986 Y136.430 E0.0079
G1 X91.772 Y136.430 E0.0734
G1 X91.696 Y136.199 E0.0081
G1 E-0.6000 F1500
G1 X91.311 Y135.961 F7200
G1 E0.6000 F1500
G1 X91.659 Y135.705 E0.0143 F540
G1 X91.975 Y135.418 E0.0142
G1 X92.250 Y135.108 E0.0137
G1 X92.425 Y134.876 E0.0096
G1 X92.573 Y134.627 E0.0096
G1 X92.799 Y134.171 E0.0169
G1 X93.085 Y134.617 E0.0176
G1 X93.388 Y135.007 E0.0164
G1 X93.728 Y135.370 E0.0165
G1 X94.088 Y135.689 E0.0159
G1 X94.342 Y135.888 E0.0107
G1 X94.610 Y136.063 E0.0106
G1 X95.025 Y136.302 E0.0159
G1 X95.482 Y136.507 E0.0166
G1 X95.663 Y136.568 E0.0063
G1 X95.617 Y136.850 E0.0095
G1 X89.953 Y136.850 E0.1879
G1 X89.916 Y136.557 E0.0098
G1 X90.244 Y136.471 E0.0112
G1 X90.759 Y136.266 E0.0184
G1 X91.311 Y135.961 E0.0209
G1 E-0.6000 F1500
G1 X92.605 Y127.840 F7200
G1 E0.6000 F1500
G1 X92.419 Y127.169 E0.0231 F540
G1 X92.298 Y126.863 E0.0109
G1 X92.051 Y126.439 E0.0163
G1 X91.811 Y126.139 E0.0127
G1 X91.641 Y125.969 E0.0080
G1 X91.316 Y125.689 E0.0142
G1 X90.822 Y125.378 E0.0194
G1 X90.334 Y125.161 E0.0177
G1 X89.731 Y124.989 E0.0208
G1 X89.235 Y124.905 E0.0167
G1 X88.696 Y124.863 E0.0179
G1 X84.258 Y124.859 E0.1473
G1 X80.214 Y124.859 E0.1342
G1 X80.214 Y127.216 E0.0782
G1 X79.932 Y127.262 E0.0095
G1 X79.889 Y127.135 E0.0044
G1 X79.704 Y126.750 E0.0142
G1 X79.356 Y126.250 E0.0202
G1 X79.066 Y125.944 E0.0140
G1 X78.867 Y125.776 E0.0087
G1 X78.561 Y125.554 E0.0125
G1 X78.209 Y125.355 E0.0134
G1 X77.687 Y125.139 E0.0187
G1 X77.306 Y125.025 E0.0132
G1 X76.646 Y124.905 E0.0223
G1 X76.213 Y124.870 E0.0144
G1 X71.602 Y124.856 E0.1530
G1 X71.602 Y132.312 E0.2474
G1 X71.326 Y132.362 E0.0093
G1 X68.533 Y124.859 E0.2656
G1 X65.193 Y124.859 E0.1108
G1 X62.073 Y133.181 E0.2949
G1 X58.687 Y133.181 E0.1123
G1 X62.992 Y127.008 E0.2497
G1 X62.992 Y124.859 E0.0713
G1 X53.640 Y124.859 E0.3103
G1 X53.640 Y128.422 E0.1182
G1 X57.543 Y128.422 E0.1295
G1 X53.229 Y134.553 E0.2487
G1 X53.229 Y136.850 E0.0762
G1 X50.722 Y136.850 E0.0832
G1 X50.450 Y136.578 E0.0128
G1 X50.450 Y79.333 E1.8992
G1 X199.550 Y79.333 E4.9467
G1 X199.550 Y136.578 E1.8992
G1 X199.278 Y136.850 E0.0128
G1 X99.823 Y136.850 E3.2996
G1 X99.775 Y136.571 E0.0094
G1 X100.057 Y136.471 E0.0099
G1 X100.531 Y136.250 E0.0173
G1 X100.972 Y135.987 E0.0170
G1 X101.256 Y135.785 E0.0116
G1 X101.650 Y135.455 E0.0171
G1 X102.016 Y135.082 E0.0173
G1 X102.337 Y134.682 E0.0170
G1 X102.617 Y134.258 E0.0169
G1 X102.856 Y133.812 E0.0168
G1 X103.053 Y133.354 E0.0165
G1 X103.163 Y133.039 E0.0111
G1 X103.297 Y132.566 E0.0163
G1 X103.396 Y132.074 E0.0166
G1 X103.462 Y131.575 E0.0167
G1 X103.497 Y131.062 E0.0171
G1 X103.494 Y130.271 E0.0262
G1 X103.450 Y129.742 E0.0176
G1 X103.311 Y128.954 E0.0265
G1 X103.167 Y128.448 E0.0175
G1 X102.983 Y127.967 E0.0171
G1 X102.756 Y127.505 E0.0171
G1 X102.488 Y127.063 E0.0172
G1 X102.183 Y126.654 E0.0169
G1 X101.955 Y126.392 E0.0115
G1 X101.586 Y126.030 E0.0171
G1 X101.174 Y125.699 E0.0175
G1 X100.730 Y125.412 E0.0176
G1 X100.257 Y125.171 E0.0176
G1 X99.761 Y124.982 E0.0176
G1 X99.265 Y124.849 E0.0170
G1 X98.932 Y124.782 E0.0113
G1 X98.417 Y124.720 E0.0172
G1 X97.886 Y124.698 E0.0176
G1 X97.081 Y124.736 E0.0268
G1 X96.558 Y124.812 E0.0175
G1 X96.055 Y124.929 E0.0171
G1 X95.573 Y125.088 E0.0168
G1 X95.253 Y125.222 E0.0115
G1 X94.799 Y125.457 E0.0170
G1 X94.363 Y125.740 E0.0172
G1 X93.958 Y126.064 E0.0172
G1 X93.587 Y126.424 E0.0172
G1 X93.254 Y126.817 E0.0171
G1 X92.967 Y127.229 E0.0167
G1 X92.605 Y127.840 E0.0235
G1 E-0.6000 F1500
G1 X80.214 Y129.927 F7200
G1 E0.6000 F1500
G1 X80.214 Y133.159 E0.1072 F540
G1 X79.971 Y133.229 E0.0084
G1 X79.501 Y132.487 E0.0292
G1 X78.919 Y131.636 E0.0342
G1 X78.801 Y131.491 E0.0062
G1 X79.161 Y131.152 E0.0164
G1 X79.417 Y130.849 E0.0131
G1 X79.665 Y130.476 E0.0149
G1 X79.847 Y130.121 E0.0132
G1 X79.937 Y129.877 E0.0086
G1 X80.214 Y129.927 E0.0093
G1 E-0.6000 F1500
G1 X75.645 Y133.342 F7200
G1 E0.6000 F1500
G1 X75.838 Y133.644 E0.0119 F540
G1 X77.755 Y136.850 E0.1239
G1 X75.403 Y136.850 E0.0780
G1 X75.403 Y133.412 E0.1140
G1 X75.645 Y133.342 E0.0084
G1 E-0.6000 F1500
G1 X68.869 Y136.850 F7200
G1 E0.6000 F1500
G1 X64.835 Y136.850 E0.1339 F540
G1 X65.709 Y134.275 E0.0902
G1 X67.958 Y134.275 E0.0746
G1 X68.869 Y136.850 E0.0906
G1 E-0.6000 F1500
G1 X50.548 Y137.270 F7200
G1 E0.6000 F1500
G1 X50.030 Y136.752 E0.0243 F540
G1 X50.030 Y78.913 E1.9189
G1 X199.970 Y78.913 E4.9746
G1 X199.970 Y136.752 E1.9189
