; G-Code generated by Simplify3D(R) Version 4.1.2
; Oct 4, 2019 at 2:51:23 PM
; Settings Summary
;   processName,Process1
;   applyToModels,calib-squares-30x30-2
;   profileName,Zaribo MK3 Quality (PLA)
;   profileVersion,2019-07-09 12:26:50
;   baseProfile,Default
;   printMaterial,PLA -BMG
;   printQuality,0.2
;   printExtruders,
;   extruderName,Primary Extruder
;   extruderToolheadNumber,0
;   extruderDiameter,0.4
;   extruderAutoWidth,0
;   extruderWidth,0.38
;   extrusionMultiplier,0.9
;   extruderUseRetract,1
;   extruderRetractionDistance,0.4
;   extruderExtraRestartDistance,0
;   extruderRetractionZLift,0.5
;   extruderRetractionSpeed,1500
;   extruderUseCoasting,0
;   extruderCoastingDistance,0.05
;   extruderUseWipe,0
;   extruderWipeDistance,2
;   primaryExtruder,0
;   layerHeight,0.2
;   topSolidLayers,4
;   bottomSolidLayers,4
;   perimeterOutlines,3
;   printPerimetersInsideOut,1
;   startPointOption,2
;   startPointOriginX,0
;   startPointOriginY,300
;   sequentialIslands,0
;   spiralVaseMode,0
;   firstLayerHeightPercentage,100
;   firstLayerWidthPercentage,115
;   firstLayerUnderspeed,0.3
;   useRaft,0
;   raftExtruder,0
;   raftTopLayers,3
;   raftBaseLayers,2
;   raftOffset,8
;   raftSeparationDistance,0.11
;   raftTopInfill,100
;   aboveRaftSpeedMultiplier,0.3
;   useSkirt,1
;   skirtExtruder,0
;   skirtLayers,1
;   skirtOutlines,2
;   skirtOffset,1
;   usePrimePillar,0
;   primePillarExtruder,999
;   primePillarWidth,12
;   primePillarLocation,7
;   primePillarSpeedMultiplier,1
;   useOozeShield,0
;   oozeShieldExtruder,999
;   oozeShieldOffset,2
;   oozeShieldOutlines,1
;   oozeShieldSidewallShape,1
;   oozeShieldSidewallAngle,30
;   oozeShieldSpeedMultiplier,1
;   infillExtruder,0
;   internalInfillPattern,Fast Honeycomb
;   externalInfillPattern,Rectilinear
;   infillPercentage,15
;   outlineOverlapPercentage,30
;   infillExtrusionWidthPercentage,105
;   minInfillLength,1
;   infillLayerInterval,1
;   internalInfillAngles,0
;   overlapInternalInfillAngles,0
;   externalInfillAngles,45,-45
;   generateSupport,0
;   supportExtruder,0
;   supportInfillPercentage,15
;   supportExtraInflation,0.3
;   supportBaseLayers,1
;   denseSupportExtruder,0
;   denseSupportLayers,1
;   denseSupportInfillPercentage,50
;   supportLayerInterval,1
;   supportHorizontalPartOffset,0.25
;   supportUpperSeparationLayers,1
;   supportLowerSeparationLayers,1
;   supportType,0
;   supportGridSpacing,2
;   maxOverhangAngle,45
;   supportAngles,0
;   temperatureName,Primary Extruder,Heated Bed
;   temperatureNumber,0,0
;   temperatureSetpointCount,2,1
;   temperatureSetpointLayers,1,2,1
;   temperatureSetpointTemperatures,215,210,55
;   temperatureStabilizeAtStartup,1,1
;   temperatureHeatedBed,0,1
;   fanLayers,1,2
;   fanSpeeds,0,50
;   blipFanToFullPower,0
;   adjustSpeedForCooling,1
;   minSpeedLayerTime,15
;   minCoolingSpeedSlowdown,20
;   increaseFanForCooling,0
;   minFanLayerTime,45
;   maxCoolingFanSpeed,100
;   increaseFanForBridging,0
;   bridgingFanSpeed,100
;   use5D,1
;   relativeEdistances,1
;   allowEaxisZeroing,1
;   independentExtruderAxes,0
;   includeM10123,0
;   stickySupport,1
;   applyToolheadOffsets,0
;   gcodeXoffset,0
;   gcodeYoffset,0
;   gcodeZoffset,0
;   overrideMachineDefinition,1
;   machineTypeOverride,0
;   strokeXoverride,250
;   strokeYoverride,210
;   strokeZoverride,210
;   originOffsetXoverride,0
;   originOffsetYoverride,0
;   originOffsetZoverride,0
;   homeXdirOverride,-1
;   homeYdirOverride,-1
;   homeZdirOverride,-1
;   flipXoverride,1
;   flipYoverride,-1
;   flipZoverride,1
;   toolheadOffsets,0,0|0,0|0,0|0,0|0,0|0,0
;   overrideFirmwareConfiguration,0
;   firmwareTypeOverride,RepRap (Marlin/Repetier/Sprinter)
;   GPXconfigOverride,r2
;   baudRateOverride,115200
;   overridePrinterModels,0
;   printerModelsOverride
;   startingGcode,G28 W ; home all without mesh bed level,G0 X60 Y-3 Z80; move extruder above bed to keep PINDA cool keep extruder in front for cleaning,,M104 S160 T0 ; this will take the layer 1 temperature for extruder 1,M140 S[bed0_temperature] T0; this will take the layer 1 temperature for bed 0,M190 S[bed0_temperature] T0; wait for bed temp,,G28 W ; home all without mesh bed level,G80 N7; mesh bed leveling,,M104S[extruder0_temperature] T0,M109 S[extruder0_temperature] T0 ; wait for extruder temp,,M900 K0.05 ;,,M205 X8 ; jerk x standard 15,M205 Y8 ; jerk y standard 15,M205 E0.33 ; jerk e axis,M201 E180 ; e axis acceleration,,G1 Y-3.0 F1000.0 ; go outside print area,G92 E0.0,,G1 E8 ; Purge Bubble,G1 X60.0 E9.0  F1000.0 ; intro line,G1 X100.0 E12.5  F1000.0 ; intro line,G92 E0.0,
;   layerChangeGcode,G1 [current_Z_position] F10000;
;   retractionGcode,
;   toolChangeGcode,
;   endingGcode,M104 S0 ; turn off temperature,M140 S0 ; turn off heatbed,M107 ; turn off fan,G1 F1000.0 ; set feed rate,G1 E-3 ; retract,G1 X0 Y200 F7200 ; home XY axis,,M84 ; disable motors
;   exportFileFormat,gcode
;   celebration,0
;   celebrationSong,Funky Town
;   postProcessing,{REPLACE "; outer perimeter\n" "; outer perimeter\nM204 S600\n"},{REPLACE "; inner perimeter\n" "; inner perimeter\nM204 S1000\n"},{REPLACE "; solid layer\n" "; solid layer\nM204 S1200\n"},{REPLACE "; infill\n" "; infill\nM204 S1500\n"}
;   defaultSpeed,3600
;   outlineUnderspeed,0.4
;   solidInfillUnderspeed,0.8
;   supportUnderspeed,0.4
;   rapidXYspeed,8400
;   rapidZspeed,3600
;   minBridgingArea,5
;   bridgingExtraInflation,1
;   bridgingExtrusionMultiplier,1
;   bridgingSpeedMultiplier,0.95
;   useFixedBridgingAngle,0
;   fixedBridgingAngle,0
;   applyBridgingToPerimeters,0
;   filamentDiameters,1.75|1.75|1.75|1.75|1.75|1.75
;   filamentPricesPerKg,24|46|46|46|46|46
;   filamentDensities,1.25|1.25|1.25|1.25|1.25|1.25
;   useMinPrintHeight,0
;   minPrintHeight,0
;   useMaxPrintHeight,0
;   maxPrintHeight,0
;   useDiaphragm,0
;   diaphragmLayerInterval,20
;   robustSlicing,1
;   mergeAllIntoSolid,0
;   onlyRetractWhenCrossingOutline,0
;   retractBetweenLayers,0
;   useRetractionMinTravel,1
;   retractionMinTravel,1
;   retractWhileWiping,1
;   onlyWipeOutlines,1
;   avoidCrossingOutline,1
;   maxMovementDetourFactor,3
;   toolChangeRetractionDistance,12
;   toolChangeExtraRestartDistance,-0.5
;   toolChangeRetractionSpeed,600
;   externalThinWallType,1
;   internalThinWallType,2
;   thinWallAllowedOverlapPercentage,10
;   singleExtrusionMinLength,1
;   singleExtrusionMinPrintingWidthPercentage,50
;   singleExtrusionMaxPrintingWidthPercentage,200
;   singleExtrusionEndpointExtension,0.2
;   horizontalSizeCompensation,0
G90
M83
M106 S0
G28 W ; home all without mesh bed level
G0 X60 Y-3 Z80; move extruder above bed to keep PINDA cool keep extruder in front for cleaning
M104 S160 T0 ; this will take the layer 1 temperature for extruder 1
M140 S55 T0; this will take the layer 1 temperature for bed 0
M190 S55 T0; wait for bed temp
G28 W ; home all without mesh bed level
G80 N7; mesh bed leveling
M104S215 T0
M109 S215 T0 ; wait for extruder temp
M900 K0.05 ;
M205 X8 ; jerk x standard 15
M205 Y8 ; jerk y standard 15
M205 E0.33 ; jerk e axis
M201 E180 ; e axis acceleration
G1 Y-3.0 F1000.0 ; go outside print area
G92 E0.0
G1 E8 ; Purge Bubble
G1 X60.0 E9.0  F1000.0 ; intro line
G1 X100.0 E12.5  F1000.0 ; intro line
G92 E0.0
; process Process1
; layer 1, Z = 0.200
T0
G1 E-0.4000 F1500
G1 0.200 F10000;
; feature skirt
; tool H0.200 W0.437
G1 Z0.500 F3600
G1 X9.314 Y88.344 F8400
G1 Z0.200 F3600
G1 E0.4000 F1500
G1 X40.686 Y88.344 E1.0259 F1080
G1 X41.656 Y89.314 E0.0449
G1 X41.656 Y102.944 E0.4457
G1 X108.344 Y102.944 E2.1809
G1 X108.344 Y89.314 E0.4457
G1 X109.314 Y88.344 E0.0449
G1 X122.944 Y88.344 E0.4457
G1 X122.944 Y41.656 E1.5269
G1 X109.314 Y41.656 E0.4457
G1 X108.344 Y40.686 E0.0449
G1 X108.344 Y9.314 E1.0259
G1 X109.314 Y8.344 E0.0449
G1 X140.686 Y8.344 E1.0259
G1 X141.655 Y9.314 E0.0449
G1 X141.655 Y40.686 E1.0259
G1 X140.686 Y41.656 E0.0449
G1 X127.055 Y41.656 E0.4458
G1 X127.055 Y88.344 E1.5269
G1 X140.686 Y88.344 E0.4457
G1 X141.655 Y89.314 E0.0449
G1 X141.655 Y102.944 E0.4457
G1 X208.345 Y102.944 E2.1809
G1 X208.345 Y89.314 E0.4457
G1 X209.314 Y88.344 E0.0449
G1 X240.686 Y88.344 E1.0259
G1 X241.655 Y89.314 E0.0449
G1 X241.655 Y120.686 E1.0259
G1 X240.686 Y121.656 E0.0449
G1 X209.314 Y121.656 E1.0259
G1 X208.345 Y120.686 E0.0449
G1 X208.345 Y107.055 E0.4457
G1 X141.655 Y107.055 E2.1809
G1 X141.655 Y120.686 E0.4457
G1 X140.686 Y121.656 E0.0449
G1 X127.055 Y121.656 E0.4458
G1 X127.055 Y168.345 E1.5269
G1 X140.686 Y168.345 E0.4457
G1 X141.655 Y169.314 E0.0449
G1 X141.655 Y200.686 E1.0259
G1 X140.686 Y201.655 E0.0449
G1 X109.314 Y201.655 E1.0259
G1 X108.344 Y200.686 E0.0449
G1 X108.344 Y169.314 E1.0259
G1 X109.314 Y168.345 E0.0449
G1 X122.944 Y168.345 E0.4457
G1 X122.944 Y121.656 E1.5269
G1 X109.314 Y121.656 E0.4457
G1 X108.344 Y120.686 E0.0449
G1 X108.344 Y107.055 E0.4457
G1 X49.028 Y107.055 E1.9398
G1 X48.827 Y107.257 E0.0093
G1 X47.329 Y107.257 E0.0490
G1 X47.329 Y110.706 E0.1128
G1 X46.359 Y111.676 E0.0449
G1 X44.324 Y111.676 E0.0665
G1 X43.355 Y110.706 E0.0449
G1 X43.355 Y107.055 E0.1194
G1 X41.656 Y107.055 E0.0556
G1 X41.656 Y120.686 E0.4457
G1 X40.686 Y121.656 E0.0449
G1 X9.314 Y121.656 E1.0259
G1 X8.344 Y120.686 E0.0449
G1 X8.344 Y89.314 E1.0259
G1 X9.314 Y88.344 E0.0449
G1 X9.495 Y88.781 F8400
G1 X40.505 Y88.781 E1.0141 F1080
G1 X41.218 Y89.495 E0.0330
G1 X41.218 Y103.381 E0.4541
G1 X108.781 Y103.381 E2.2095
G1 X108.781 Y89.495 E0.4541
G1 X109.495 Y88.781 E0.0330
G1 X123.381 Y88.781 E0.4541
G1 X123.381 Y41.218 E1.5555
G1 X109.495 Y41.218 E0.4541
G1 X108.781 Y40.505 E0.0330
G1 X108.781 Y9.495 E1.0141
G1 X109.495 Y8.781 E0.0330
G1 X140.505 Y8.781 E1.0141
G1 X141.219 Y9.495 E0.0330
G1 X141.219 Y40.505 E1.0141
G1 X140.505 Y41.218 E0.0330
G1 X126.618 Y41.218 E0.4541
G1 X126.618 Y88.781 E1.5555
G1 X140.505 Y88.781 E0.4541
G1 X141.219 Y89.495 E0.0330
G1 X141.219 Y103.381 E0.4541
G1 X208.781 Y103.381 E2.2095
G1 X208.781 Y89.495 E0.4541
G1 X209.495 Y88.781 E0.0330
G1 X240.505 Y88.781 E1.0141
G1 X241.219 Y89.495 E0.0330
G1 X241.219 Y120.505 E1.0141
G1 X240.505 Y121.219 E0.0330
G1 X209.495 Y121.219 E1.0141
G1 X208.781 Y120.505 E0.0330
G1 X208.781 Y106.618 E0.4541
G1 X141.219 Y106.618 E2.2095
G1 X141.219 Y120.505 E0.4541
G1 X140.505 Y121.219 E0.0330
G1 X126.618 Y121.219 E0.4541
G1 X126.618 Y168.781 E1.5555
G1 X140.505 Y168.781 E0.4541
G1 X141.219 Y169.495 E0.0330
G1 X141.219 Y200.505 E1.0141
G1 X140.505 Y201.219 E0.0330
G1 X109.495 Y201.219 E1.0141
G1 X108.781 Y200.505 E0.0330
G1 X108.781 Y169.495 E1.0141
G1 X109.495 Y168.781 E0.0330
G1 X123.381 Y168.781 E0.4541
G1 X123.381 Y121.219 E1.5555
G1 X109.495 Y121.219 E0.4541
G1 X108.781 Y120.505 E0.0330
G1 X108.781 Y106.618 E0.4541
G1 X48.847 Y106.618 E1.9600
G1 X48.646 Y106.820 E0.0093
G1 X46.892 Y106.820 E0.0574
G1 X46.892 Y110.525 E0.1212
G1 X46.178 Y111.239 E0.0330
G1 X44.505 Y111.239 E0.0547
G1 X43.791 Y110.525 E0.0330
G1 X43.791 Y106.618 E0.1278
G1 X41.218 Y106.618 E0.0841
G1 X41.218 Y120.505 E0.4541
G1 X40.505 Y121.219 E0.0330
G1 X9.495 Y121.219 E1.0141
G1 X8.781 Y120.505 E0.0330
G1 X8.781 Y89.495 E1.0141
G1 X9.495 Y88.781 E0.0330
G1 E-0.4000 F1500
; feature inner perimeter
G1 Z0.700 F3600
G1 X10.219 Y90.219 F8400
G1 X10.488 Y90.219
G1 X11.092 Y91.093
G1 Z0.200 F3600
G1 E0.4000 F1500
G1 X38.907 Y91.093 E0.9096 F756
G1 X38.907 Y118.907 E0.9096
G1 X11.092 Y118.907 E0.9096
G1 X11.092 Y91.093 E0.9096
G1 X10.656 Y90.656 F8400
G1 X39.344 Y90.656 E0.9382 F756
G1 X39.344 Y119.344 E0.9382
G1 X10.656 Y119.344 E0.9382
G1 X10.656 Y90.656 E0.9382
; feature outer perimeter
G1 X10.219 Y90.219 F8400
G1 X39.782 Y90.219 E0.9668 F432
G1 X39.782 Y119.781 E0.9668
G1 X10.219 Y119.781 E0.9668
G1 X10.219 Y90.219 E0.9668
G1 E-0.4000 F1500
G1 Z0.700 F3600
G1 X39.782 Y102.547 F8400
G1 X39.782 Y104.818
G1 X45.228 Y104.818
G1 Z0.200 F3600
G1 E0.4000 F1500
G1 X47.922 Y104.818 E0.0881 F432
G1 X47.922 Y105.383 E0.0185
G1 X45.228 Y105.383 E0.0881
G1 X45.228 Y104.818 E0.0185
G1 E-0.4000 F1500
; feature inner perimeter
G1 Z0.700 F3600
G1 X110.219 Y104.818 F8400
G1 X110.219 Y91.275
G1 X111.093 Y91.093
G1 Z0.200 F3600
G1 E0.4000 F1500
G1 X138.907 Y91.093 E0.9096 F756
G1 X138.907 Y118.907 E0.9096
G1 X111.093 Y118.907 E0.9096
G1 X111.093 Y91.093 E0.9096
G1 X110.656 Y90.656 F8400
G1 X139.345 Y90.656 E0.9382 F756
G1 X139.345 Y119.344 E0.9382
G1 X110.656 Y119.344 E0.9382
G1 X110.656 Y90.656 E0.9382
; feature outer perimeter
G1 X110.219 Y90.219 F8400
G1 X139.781 Y90.219 E0.9668 F432
G1 X139.781 Y119.781 E0.9668
G1 X110.219 Y119.781 E0.9668
G1 X110.219 Y90.219 E0.9668
G1 E-0.4000 F1500
; feature inner perimeter
G1 Z0.700 F3600
G1 X124.818 Y90.219 F8400
G1 X124.818 Y39.782
G1 X111.078 Y39.782
G1 X111.093 Y38.907
G1 Z0.200 F3600
G1 E0.4000 F1500
G1 X111.093 Y11.092 E0.9096 F756
G1 X138.907 Y11.092 E0.9096
G1 X138.907 Y38.907 E0.9096
G1 X111.093 Y38.907 E0.9096
G1 X110.656 Y39.344 F8400
G1 X110.656 Y10.656 E0.9382 F756
G1 X139.345 Y10.656 E0.9382
G1 X139.345 Y39.344 E0.9382
G1 X110.656 Y39.344 E0.9382
; feature outer perimeter
G1 X110.219 Y39.782 F8400
G1 X110.219 Y10.219 E0.9668 F432
G1 X139.781 Y10.219 E0.9668
G1 X139.781 Y39.782 E0.9668
G1 X110.219 Y39.782 E0.9668
G1 E-0.4000 F1500
; feature inner perimeter
G1 Z0.700 F3600
G1 X124.818 Y39.782 F8400
G1 X124.818 Y47.208
G1 X125.181 Y47.393
G1 X125.181 Y90.219
G1 X139.781 Y90.219
G1 X139.781 Y104.818
G1 X210.219 Y104.818
G1 X210.219 Y90.648
G1 X211.093 Y91.093
G1 Z0.200 F3600
G1 E0.4000 F1500
G1 X238.907 Y91.093 E0.9096 F756
G1 X238.907 Y118.907 E0.9096
G1 X211.093 Y118.907 E0.9096
G1 X211.093 Y91.093 E0.9096
G1 X210.655 Y90.656 F8400
G1 X239.345 Y90.656 E0.9382 F756
G1 X239.345 Y119.344 E0.9382
G1 X210.655 Y119.344 E0.9382
G1 X210.655 Y90.656 E0.9382
; feature outer perimeter
G1 X210.219 Y90.219 F8400
G1 X239.781 Y90.219 E0.9668 F432
G1 X239.781 Y119.781 E0.9668
G1 X210.219 Y119.781 E0.9668
G1 X210.219 Y90.219 E0.9668
G1 E-0.4000 F1500
; feature inner perimeter
G1 Z0.700 F3600
G1 X210.219 Y104.818 F8400
G1 X197.345 Y104.818
G1 X197.025 Y105.181
G1 X139.781 Y105.181
G1 X139.781 Y119.781
G1 X125.181 Y119.781
G1 X125.181 Y170.219
G1 X139.678 Y170.219
G1 X138.907 Y171.093
G1 Z0.200 F3600
G1 E0.4000 F1500
G1 X138.907 Y198.907 E0.9096 F756
G1 X111.093 Y198.907 E0.9096
G1 X111.093 Y171.093 E0.9096
G1 X138.907 Y171.093 E0.9096
G1 X139.345 Y170.655 F8400
G1 X139.345 Y199.345 E0.9382 F756
G1 X110.656 Y199.345 E0.9382
G1 X110.656 Y170.655 E0.9382
G1 X139.345 Y170.655 E0.9382
; feature outer perimeter
G1 X139.781 Y170.219 F8400
G1 X139.781 Y199.781 E0.9668 F432
G1 X110.219 Y199.781 E0.9668
G1 X110.219 Y170.219 E0.9668
G1 X139.781 Y170.219 E0.9668
G1 E-0.4000 F1500
; feature external single extrusion
; tool H0.200 W0.760
G1 Z0.700 F3600
G1 X125.181 Y170.219 F8400
G1 X125.181 Y169.746
G1 X125.000 Y169.740
G1 Z0.200 F3600
G1 E0.4000 F1500
G1 X125.000 Y169.464 E0.0157 F432
G1 X125.000 Y169.388 E0.0043
G1 X125.000 Y169.312 E0.0043
G1 X125.000 Y169.236 E0.0043
G1 X125.000 Y169.160 E0.0043
G1 X125.000 Y169.084 E0.0043
G1 X125.000 Y169.008 E0.0043
G1 X125.000 Y168.932 E0.0043
G1 X125.000 Y168.856 E0.0043
G1 X125.000 Y168.780 E0.0043
G1 X125.000 Y168.704 E0.0043
G1 X125.000 Y168.628 E0.0043
G1 X125.000 Y168.552 E0.0043
G1 X125.000 Y168.476 E0.0043
G1 X125.000 Y168.400 E0.0043
G1 X125.000 Y168.324 E0.0043
G1 X125.000 Y168.248 E0.0043
G1 X125.000 Y168.172 E0.0043
G1 X125.000 Y168.096 E0.0043
G1 X125.000 Y168.020 E0.0043
G1 X125.000 Y167.944 E0.0043
G1 X125.000 Y167.868 E0.0043
G1 X125.000 Y167.792 E0.0043
G1 X125.000 Y167.716 E0.0043
G1 X125.000 Y167.640 E0.0043
G1 X125.000 Y167.564 E0.0043
G1 X125.000 Y167.488 E0.0043
G1 X125.000 Y167.412 E0.0043
G1 X125.000 Y167.337 E0.0043
G1 X125.000 Y167.261 E0.0043
G1 X125.000 Y167.185 E0.0043
G1 X125.000 Y167.109 E0.0043
G1 X125.000 Y167.033 E0.0043
G1 X125.000 Y166.957 E0.0043
G1 X125.000 Y166.881 E0.0043
G1 X125.000 Y166.805 E0.0043
G1 X125.000 Y166.729 E0.0043
G1 X125.000 Y166.653 E0.0043
G1 X125.000 Y166.577 E0.0043
G1 X125.000 Y166.501 E0.0043
G1 X125.000 Y166.425 E0.0043
G1 X125.000 Y166.349 E0.0043
