; G-Code generated by Simplify3D(R) Version 4.1.2
; Nov 12, 2019 at 12:24:10 PM
; Settings Summary
;   processName,Process1
;   applyToModels,low_cube
;   profileName,Zaribo MK3 Quality (PLA) (modified)
;   profileVersion,2019-11-10 22:03:11
;   baseProfile,Default
;   printMaterial,PLA -BMG
;   printQuality,0.2
;   printExtruders,
;   extruderName,Primary Extruder
;   extruderToolheadNumber,0
;   extruderDiameter,0.4
;   extruderAutoWidth,0
;   extruderWidth,0.36
;   extrusionMultiplier,0.9
;   extruderUseRetract,1
;   extruderRetractionDistance,1
;   extruderExtraRestartDistance,0
;   extruderRetractionZLift,0.5
;   extruderRetractionSpeed,1500
;   extruderUseCoasting,0
;   extruderCoastingDistance,0.05
;   extruderUseWipe,0
;   extruderWipeDistance,2
;   primaryExtruder,0
;   layerHeight,0.2
;   topSolidLayers,0
;   bottomSolidLayers,3
;   perimeterOutlines,2
;   printPerimetersInsideOut,1
;   startPointOption,3
;   startPointOriginX,0
;   startPointOriginY,300
;   sequentialIslands,0
;   spiralVaseMode,0
;   firstLayerHeightPercentage,200
;   firstLayerWidthPercentage,115
;   firstLayerUnderspeed,0.3
;   useRaft,0
;   raftExtruder,0
;   raftTopLayers,3
;   raftBaseLayers,2
;   raftOffset,8
;   raftSeparationDistance,0.11
;   raftTopInfill,100
;   aboveRaftSpeedMultiplier,0.3
;   useSkirt,0
;   skirtExtruder,0
;   skirtLayers,1
;   skirtOutlines,20
;   skirtOffset,0
;   usePrimePillar,0
;   primePillarExtruder,999
;   primePillarWidth,12
;   primePillarLocation,7
;   primePillarSpeedMultiplier,1
;   useOozeShield,0
;   oozeShieldExtruder,999
;   oozeShieldOffset,2
;   oozeShieldOutlines,1
;   oozeShieldSidewallShape,1
;   oozeShieldSidewallAngle,30
;   oozeShieldSpeedMultiplier,1
;   infillExtruder,0
;   internalInfillPattern,Fast Honeycomb
;   externalInfillPattern,Rectilinear
;   infillPercentage,0
;   outlineOverlapPercentage,30
;   infillExtrusionWidthPercentage,105
;   minInfillLength,1
;   infillLayerInterval,1
;   internalInfillAngles,0
;   overlapInternalInfillAngles,0
;   externalInfillAngles,45,-45
;   generateSupport,1
;   supportExtruder,0
;   supportInfillPercentage,15
;   supportExtraInflation,0.3
;   supportBaseLayers,1
;   denseSupportExtruder,0
;   denseSupportLayers,1
;   denseSupportInfillPercentage,50
;   supportLayerInterval,1
;   supportHorizontalPartOffset,0.25
;   supportUpperSeparationLayers,1
;   supportLowerSeparationLayers,1
;   supportType,0
;   supportGridSpacing,2
;   maxOverhangAngle,45
;   supportAngles,0
;   temperatureName,Primary Extruder,Heated Bed
;   temperatureNumber,0,0
;   temperatureSetpointCount,2,1
;   temperatureSetpointLayers,1,2,1
;   temperatureSetpointTemperatures,215,200,55
;   temperatureStabilizeAtStartup,1,1
;   temperatureHeatedBed,0,1
;   fanLayers,1,2
;   fanSpeeds,0,75
;   blipFanToFullPower,0
;   adjustSpeedForCooling,1
;   minSpeedLayerTime,15
;   minCoolingSpeedSlowdown,20
;   increaseFanForCooling,0
;   minFanLayerTime,45
;   maxCoolingFanSpeed,100
;   increaseFanForBridging,0
;   bridgingFanSpeed,100
;   use5D,1
;   relativeEdistances,1
;   allowEaxisZeroing,1
;   independentExtruderAxes,0
;   includeM10123,0
;   stickySupport,1
;   applyToolheadOffsets,0
;   gcodeXoffset,0
;   gcodeYoffset,0
;   gcodeZoffset,0
;   overrideMachineDefinition,1
;   machineTypeOverride,0
;   strokeXoverride,250
;   strokeYoverride,210
;   strokeZoverride,210
;   originOffsetXoverride,0
;   originOffsetYoverride,0
;   originOffsetZoverride,0
;   homeXdirOverride,-1
;   homeYdirOverride,-1
;   homeZdirOverride,-1
;   flipXoverride,1
;   flipYoverride,-1
;   flipZoverride,1
;   toolheadOffsets,0,0|0,0|0,0|0,0|0,0|0,0
;   overrideFirmwareConfiguration,0
;   firmwareTypeOverride,RepRap (Marlin/Repetier/Sprinter)
;   GPXconfigOverride,r2
;   baudRateOverride,115200
;   overridePrinterModels,0
;   printerModelsOverride
;   startingGcode,G90 ; use absolute coordinates,M83 ; extruder relative mode,,;====== start preheat start script ==============================================================,,G28 W; home all without mesh bed level,G0 X60 Y-3 Z80; move extruder above bed keep extruder in front for cleaning and checking,,M104 S160 T0; pre-heat extruder to 160C ,M140 S[bed0_temperature] ; this will take the layer 1 temperature for bed 0,M190 S[bed0_temperature] ; wait for bed temp,,G80 N7; mesh bed leveling set 3x3 5x5 or 7x7 in settings menu,,M104S[extruder0_temperature] ; set extruder temperature,M109 S[extruder0_temperature]  ; wait for extruder temp,,;====== end preheat start script ================================================================,,M900 K20 ;,,M205 X8 ; jerk x standard 15,M205 Y8 ; jerk y standard 15,M205 E0.33 ; jerk e axis,M201 E180 ; e axis acceleration,,G1 Y-3.0 F1000.0 ; go outside print area,G92 E0.0,,G1 E8 ; Purge Bubble,G1 X60.0 E7.0  F1000.0 ; intro line,G1 X100.0 E8  F1000.0 ; intro line,G92 E0.0,
;   layerChangeGcode,G1 [current_Z_position] F10000;
;   retractionGcode,
;   toolChangeGcode,
;   endingGcode,M104 S0 ; turn off temperature,M140 S0 ; turn off heatbed,M107 ; turn off fan,G1 F1000.0 ; set feed rate,G1 E-3 ; retract,G1 X0 Y200 F7200 ; home XY axis,,M84 ; disable motors
;   exportFileFormat,gcode
;   celebration,0
;   celebrationSong,Funky Town
;   postProcessing,{REPLACE "; outer perimeter\n" "; outer perimeter\nM204 S600\n"},{REPLACE "; inner perimeter\n" "; inner perimeter\nM204 S1000\n"},{REPLACE "; solid layer\n" "; solid layer\nM204 S1200\n"},{REPLACE "; infill\n" "; infill\nM204 S1500\n"}
;   defaultSpeed,2400
;   outlineUnderspeed,0.4
;   solidInfillUnderspeed,0.8
;   supportUnderspeed,0.4
;   rapidXYspeed,8400
;   rapidZspeed,3600
;   minBridgingArea,5
;   bridgingExtraInflation,1
;   bridgingExtrusionMultiplier,1
;   bridgingSpeedMultiplier,0.95
;   useFixedBridgingAngle,0
;   fixedBridgingAngle,0
;   applyBridgingToPerimeters,0
;   filamentDiameters,1.75|1.75|1.75|1.75|1.75|1.75
;   filamentPricesPerKg,24|46|46|46|46|46
;   filamentDensities,1.25|1.25|1.25|1.25|1.25|1.25
;   useMinPrintHeight,0
;   minPrintHeight,0
;   useMaxPrintHeight,0
;   maxPrintHeight,0
;   useDiaphragm,0
;   diaphragmLayerInterval,20
;   robustSlicing,1
;   mergeAllIntoSolid,1
;   onlyRetractWhenCrossingOutline,0
;   retractBetweenLayers,0
;   useRetractionMinTravel,1
;   retractionMinTravel,1
;   retractWhileWiping,1
;   onlyWipeOutlines,1
;   avoidCrossingOutline,1
;   maxMovementDetourFactor,3
;   toolChangeRetractionDistance,12
;   toolChangeExtraRestartDistance,-0.5
;   toolChangeRetractionSpeed,600
;   externalThinWallType,1
;   internalThinWallType,2
;   thinWallAllowedOverlapPercentage,25
;   singleExtrusionMinLength,1
;   singleExtrusionMinPrintingWidthPercentage,50
;   singleExtrusionMaxPrintingWidthPercentage,200
;   singleExtrusionEndpointExtension,0.2
;   horizontalSizeCompensation,0
G90
M83
M106 S0
G90 ; use absolute coordinates
M83 ; extruder relative mode
;====== start preheat start script ==============================================================
G28 W; home all without mesh bed level
G0 X60 Y-3 Z80; move extruder above bed keep extruder in front for cleaning and checking
M104 S160 T0; pre-heat extruder to 160C 
M140 S55 ; this will take the layer 1 temperature for bed 0
M190 S55 ; wait for bed temp
G80 N7; mesh bed leveling set 3x3 5x5 or 7x7 in settings menu
M104S215 ; set extruder temperature
M109 S215  ; wait for extruder temp
;====== end preheat start script ================================================================
M900 K20 ;
M205 X8 ; jerk x standard 15
M205 Y8 ; jerk y standard 15
M205 E0.33 ; jerk e axis
M201 E180 ; e axis acceleration
G1 Y-3.0 F1000.0 ; go outside print area
G92 E0.0
G1 E8 ; Purge Bubble
G1 X60.0 E7.0  F1000.0 ; intro line
G1 X100.0 E8  F1000.0 ; intro line
G92 E0.0
; process Process1
; layer 1, Z = 0.400
T0
G1 E-1.0000 F1500
G1 0.400 F10000;
; feature inner perimeter
; tool H0.400 W0.414
G1 Z0.500 F3600
G1 X37.621 Y120.379 F8400
G1 Z0.400 F3600
G1 E1.0000 F1500
G1 X37.621 Y90.367 E1.8597 F504
G1 X37.966 Y90.228 E0.0231
G1 X38.328 Y90.119 E0.0234
G1 X38.786 Y90.013 E0.0291
G1 X39.323 Y89.915 E0.0338
G1 X39.921 Y89.830 E0.0375
G1 X40.589 Y89.756 E0.0416
G1 X42.044 Y89.656 E0.0904
G1 X42.816 Y89.630 E0.0478
G1 X212.379 Y89.621 E10.5067
G1 X212.379 Y120.379 E1.9059
G1 X37.621 Y120.379 E10.8286
; feature outer perimeter
G1 X37.207 Y120.793 F8400
G1 X37.207 Y90.234 E1.8935 F288
G1 X37.230 Y90.167 E0.0044
G1 X37.319 Y90.078 E0.0078
G1 X37.520 Y89.961 E0.0144
G1 X37.829 Y89.837 E0.0206
G1 X38.221 Y89.718 E0.0254
G1 X38.702 Y89.607 E0.0305
G1 X39.257 Y89.506 E0.0349
G1 X39.870 Y89.419 E0.0384
G1 X40.552 Y89.344 E0.0425
G1 X42.023 Y89.242 E0.0914
G1 X42.809 Y89.216 E0.0487
G1 X212.793 Y89.207 E10.5328
G1 X212.793 Y120.793 E1.9572
G1 X37.207 Y120.793 E10.8799
G1 E-1.0000 F1500
; feature solid layer
G1 Z0.900 F3600
G1 X38.215 Y120.089 F8400
G1 Z0.400 F3600
G1 E1.0000 F1500
G1 X37.911 Y119.785 E0.0267 F576
G1 X37.911 Y119.200 E0.0363
G1 X38.800 Y120.089 E0.0780
G1 X39.386 Y120.089 E0.0363
G1 X37.911 Y118.614 E0.1293
G1 X37.911 Y118.029 E0.0363
G1 X39.971 Y120.089 E0.1806
G1 X40.557 Y120.089 E0.0363
G1 X37.911 Y117.443 E0.2319
G1 X37.911 Y116.858 E0.0363
G1 X41.142 Y120.089 E0.2832
G1 X41.728 Y120.089 E0.0363
G1 X37.911 Y116.272 E0.3345
G1 X37.911 Y115.687 E0.0363
G1 X42.313 Y120.089 E0.3858
G1 X42.899 Y120.089 E0.0363
G1 X37.911 Y115.101 E0.4371
G1 X37.911 Y114.516 E0.0363
G1 X43.484 Y120.089 E0.4884
G1 X44.070 Y120.089 E0.0363
G1 X37.911 Y113.930 E0.5397
G1 X37.911 Y113.345 E0.0363
G1 X44.655 Y120.089 E0.5910
G1 X45.241 Y120.089 E0.0363
G1 X37.911 Y112.759 E0.6423
G1 X37.911 Y112.174 E0.0363
G1 X45.826 Y120.089 E0.6936
G1 X46.412 Y120.089 E0.0363
G1 X37.911 Y111.588 E0.7449
G1 X37.911 Y111.003 E0.0363
G1 X46.997 Y120.089 E0.7962
G1 X47.583 Y120.089 E0.0363
G1 X37.911 Y110.417 E0.8475
G1 X37.911 Y109.832 E0.0363
G1 X48.168 Y120.089 E0.8989
G1 X48.754 Y120.089 E0.0363
G1 X37.911 Y109.246 E0.9502
G1 X37.911 Y108.661 E0.0363
G1 X49.339 Y120.089 E1.0015
G1 X49.925 Y120.089 E0.0363
G1 X37.911 Y108.075 E1.0528
G1 X37.911 Y107.490 E0.0363
G1 X50.510 Y120.089 E1.1041
G1 X51.096 Y120.089 E0.0363
G1 X37.911 Y106.904 E1.1554
G1 X37.911 Y106.319 E0.0363
G1 X51.681 Y120.089 E1.2067
G1 X52.267 Y120.089 E0.0363
G1 X37.911 Y105.733 E1.2580
G1 X37.911 Y105.148 E0.0363
G1 X52.852 Y120.089 E1.3093
G1 X53.438 Y120.089 E0.0363
G1 X37.911 Y104.562 E1.3606
G1 X37.911 Y103.977 E0.0363
G1 X54.023 Y120.089 E1.4119
G1 X54.608 Y120.089 E0.0363
G1 X37.911 Y103.392 E1.4632
G1 X37.911 Y102.806 E0.0363
G1 X55.194 Y120.089 E1.5145
G1 X55.779 Y120.089 E0.0363
G1 X37.911 Y102.221 E1.5658
G1 X37.911 Y101.635 E0.0363
G1 X56.365 Y120.089 E1.6171
G1 X56.950 Y120.089 E0.0363
G1 X37.911 Y101.050 E1.6684
G1 X37.911 Y100.464 E0.0363
G1 X57.536 Y120.089 E1.7197
G1 X58.121 Y120.089 E0.0363
G1 X37.911 Y99.879 E1.7711
G1 X37.911 Y99.293 E0.0363
G1 X58.707 Y120.089 E1.8224
G1 X59.292 Y120.089 E0.0363
G1 X37.911 Y98.708 E1.8737
G1 X37.911 Y98.122 E0.0363
G1 X59.878 Y120.089 E1.9250
G1 X60.463 Y120.089 E0.0363
G1 X37.911 Y97.537 E1.9763
G1 X37.911 Y96.951 E0.0363
G1 X61.049 Y120.089 E2.0276
G1 X61.634 Y120.089 E0.0363
G1 X37.911 Y96.366 E2.0789
G1 X37.911 Y95.780 E0.0363
G1 X62.220 Y120.089 E2.1302
G1 X62.805 Y120.089 E0.0363
G1 X37.911 Y95.195 E2.1815
G1 X37.911 Y94.609 E0.0363
G1 X63.391 Y120.089 E2.2328
G1 X63.976 Y120.089 E0.0363
G1 X37.911 Y94.024 E2.2841
G1 X37.911 Y93.438 E0.0363
G1 X64.562 Y120.089 E2.3354
G1 X65.147 Y120.089 E0.0363
G1 X37.911 Y92.853 E2.3867
G1 X37.911 Y92.267 E0.0363
G1 X65.733 Y120.089 E2.4380
G1 X66.318 Y120.089 E0.0363
G1 X37.911 Y91.682 E2.4893
G1 X37.911 Y91.096 E0.0363
G1 X66.904 Y120.089 E2.5406
G1 X67.489 Y120.089 E0.0363
G1 X37.947 Y90.548 E2.5887
G1 X38.062 Y90.501 E0.0077
G1 X38.389 Y90.403 E0.0211
G1 X68.075 Y120.089 E2.6014
G1 X68.660 Y120.089 E0.0363
G1 X38.864 Y90.293 E2.6110
G1 X39.359 Y90.203 E0.0312
G1 X69.246 Y120.089 E2.6189
G1 X69.831 Y120.089 E0.0363
G1 X39.871 Y90.129 E2.6254
G1 X39.958 Y90.117 E0.0054
G1 X40.396 Y90.069 E0.0273
G1 X70.417 Y120.089 E2.6307
G1 X71.002 Y120.089 E0.0363
G1 X40.935 Y90.023 E2.6347
G1 X41.483 Y89.985 E0.0340
G1 X71.588 Y120.089 E2.6380
G1 X72.173 Y120.089 E0.0363
G1 X42.031 Y89.947 E2.6414
G1 X42.059 Y89.945 E0.0018
G1 X42.596 Y89.927 E0.0333
G1 X72.759 Y120.089 E2.6431
G1 X73.344 Y120.089 E0.0363
G1 X43.174 Y89.920 E2.6438
G1 X43.760 Y89.919 E0.0363
G1 X73.929 Y120.089 E2.6438
G1 X74.515 Y120.089 E0.0363
G1 X44.345 Y89.919 E2.6438
G1 X44.931 Y89.919 E0.0363
G1 X75.100 Y120.089 E2.6438
G1 X75.686 Y120.089 E0.0363
G1 X45.516 Y89.919 E2.6438
G1 X46.102 Y89.919 E0.0363
G1 X76.271 Y120.089 E2.6438
G1 X76.857 Y120.089 E0.0363
G1 X46.687 Y89.919 E2.6438
G1 X47.272 Y89.919 E0.0363
G1 X77.442 Y120.089 E2.6438
G1 X78.028 Y120.089 E0.0363
G1 X47.858 Y89.919 E2.6438
G1 X48.443 Y89.919 E0.0363
G1 X78.613 Y120.089 E2.6438
G1 X79.199 Y120.089 E0.0363
G1 X49.029 Y89.919 E2.6438
G1 X49.614 Y89.919 E0.0363
G1 X79.784 Y120.089 E2.6438
G1 X80.370 Y120.089 E0.0363
G1 X50.200 Y89.919 E2.6438
G1 X50.785 Y89.919 E0.0363
G1 X80.955 Y120.089 E2.6438
G1 X81.541 Y120.089 E0.0363
G1 X51.371 Y89.919 E2.6438
G1 X51.956 Y89.919 E0.0363
G1 X82.126 Y120.089 E2.6438
G1 X82.712 Y120.089 E0.0363
G1 X52.542 Y89.919 E2.6438
G1 X53.127 Y89.919 E0.0363
G1 X83.297 Y120.089 E2.6438
G1 X83.883 Y120.089 E0.0363
G1 X53.712 Y89.919 E2.6438
G1 X54.298 Y89.919 E0.0363
G1 X84.468 Y120.089 E2.6438
G1 X85.054 Y120.089 E0.0363
G1 X54.883 Y89.919 E2.6438
G1 X55.469 Y89.919 E0.0363
G1 X85.639 Y120.089 E2.6438
G1 X86.225 Y120.089 E0.0363
G1 X56.054 Y89.919 E2.6438
G1 X56.640 Y89.919 E0.0363
G1 X86.810 Y120.089 E2.6438
G1 X87.396 Y120.089 E0.0363
G1 X57.225 Y89.919 E2.6438
G1 X57.811 Y89.919 E0.0363
G1 X87.981 Y120.089 E2.6438
G1 X88.567 Y120.089 E0.0363
G1 X58.396 Y89.919 E2.6438
G1 X58.982 Y89.919 E0.0363
G1 X89.152 Y120.089 E2.6438
G1 X89.738 Y120.089 E0.0363
G1 X59.567 Y89.919 E2.6438
G1 X60.152 Y89.919 E0.0363
G1 X90.323 Y120.089 E2.6438
G1 X90.909 Y120.089 E0.0363
G1 X60.738 Y89.919 E2.6438
G1 X61.323 Y89.919 E0.0363
G1 X91.494 Y120.089 E2.6438
G1 X92.079 Y120.089 E0.0363
G1 X61.909 Y89.919 E2.6438
G1 X62.494 Y89.919 E0.0363
G1 X92.665 Y120.089 E2.6439
G1 X93.250 Y120.089 E0.0363
G1 X63.080 Y89.918 E2.6439
G1 X63.665 Y89.918 E0.0363
G1 X93.836 Y120.089 E2.6439
G1 X94.421 Y120.089 E0.0363
G1 X64.251 Y89.918 E2.6439
G1 X64.836 Y89.918 E0.0363
G1 X95.007 Y120.089 E2.6439
G1 X95.592 Y120.089 E0.0363
G1 X65.422 Y89.918 E2.6439
G1 X66.007 Y89.918 E0.0363
G1 X96.178 Y120.089 E2.6439
G1 X96.763 Y120.089 E0.0363
G1 X66.592 Y89.918 E2.6439
G1 X67.178 Y89.918 E0.0363
G1 X97.349 Y120.089 E2.6439
G1 X97.934 Y120.089 E0.0363
G1 X67.763 Y89.918 E2.6439
G1 X68.349 Y89.918 E0.0363
G1 X98.520 Y120.089 E2.6439
G1 X99.105 Y120.089 E0.0363
G1 X68.934 Y89.918 E2.6439
G1 X69.520 Y89.918 E0.0363
G1 X99.691 Y120.089 E2.6439
G1 X100.276 Y120.089 E0.0363
G1 X70.105 Y89.918 E2.6439
G1 X70.691 Y89.918 E0.0363
G1 X100.862 Y120.089 E2.6439
G1 X101.447 Y120.089 E0.0363
G1 X71.276 Y89.918 E2.6439
G1 X71.862 Y89.918 E0.0363
G1 X102.033 Y120.089 E2.6439
G1 X102.618 Y120.089 E0.0363
G1 X72.447 Y89.918 E2.6439
G1 X73.032 Y89.918 E0.0363
G1 X103.204 Y120.089 E2.6439
G1 X103.789 Y120.089 E0.0363
G1 X73.618 Y89.918 E2.6439
G1 X74.203 Y89.918 E0.0363
G1 X104.375 Y120.089 E2.6439
G1 X104.960 Y120.089 E0.0363
G1 X74.789 Y89.918 E2.6439
G1 X75.374 Y89.918 E0.0363
G1 X105.546 Y120.089 E2.6439
G1 X106.131 Y120.089 E0.0363
G1 X75.960 Y89.918 E2.6439
G1 X76.545 Y89.918 E0.0363
G1 X106.717 Y120.089 E2.6439
G1 X107.302 Y120.089 E0.0363
G1 X77.131 Y89.918 E2.6439
G1 X77.716 Y89.918 E0.0363
G1 X107.888 Y120.089 E2.6439
G1 X108.473 Y120.089 E0.0363
G1 X78.302 Y89.918 E2.6439
G1 X78.887 Y89.918 E0.0363
G1 X109.059 Y120.089 E2.6439
G1 X109.644 Y120.089 E0.0363
G1 X79.472 Y89.918 E2.6439
G1 X80.058 Y89.918 E0.0363
G1 X110.230 Y120.089 E2.6439
G1 X110.815 Y120.089 E0.0363
G1 X80.643 Y89.918 E2.6439
G1 X81.229 Y89.918 E0.0363
G1 X111.400 Y120.089 E2.6439
G1 X111.986 Y120.089 E0.0363
G1 X81.814 Y89.918 E2.6439
G1 X82.400 Y89.918 E0.0363
G1 X112.571 Y120.089 E2.6439
