; generated by Slic3r Prusa Edition 1.41.3+win64 on 2019-04-17 at 11:09:11

; 

; external perimeters extrusion width = 0.45mm
; perimeters extrusion width = 0.45mm
; infill extrusion width = 0.45mm
; solid infill extrusion width = 0.45mm
; top infill extrusion width = 0.40mm
; first layer extrusion width = 0.42mm

M73 P0 R120
M73 Q0 S121
M201 X1000 Y1000 Z1000 E5000 ; sets maximum accelerations, mm/sec^2
M203 X200 Y200 Z12 E120 ; sets maximum feedrates, mm/sec
M204 P1250 R1250 T1250 ; sets acceleration (P, T) and retract acceleration (R), mm/sec^2
M205 X8.00 Y8.00 Z0.40 E1.50 ; sets the jerk limits, mm/sec
M205 S0 T0 ; sets the minimum extruding and travel feed rate, mm/sec
M107
M115 U3.6.0 ; tell printer latest fw version
M83  ; extruder relative mode
M104 S205 ; set extruder temp
M140 S60 ; set bed temp
M190 S60 ; wait for bed temp
M109 S205 ; wait for extruder temp
G28 W ; home all without mesh bed level
G80 ; mesh bed leveling
G1 Y-3.0 F1000.0 ; go outside print area
G92 E0.0
G1 X60.0 E9.0  F1000.0 ; intro line
M73 Q0 S120
M73 P0 R120
G1 X100.0 E12.5  F1000.0 ; intro line
G92 E0.0
M221 S95
M900 K30 ; Filament gcode
G21 ; set units to millimeters
G90 ; use absolute coordinates
M83 ; use relative distances for extrusion
;BEFORE_LAYER_CHANGE
G92 E0.0
;0.2


G1 E-0.80000 F2100.00000
G1 Z0.600 F10800.000
;AFTER_LAYER_CHANGE
;0.2
G1 X111.185 Y91.314
G1 Z0.200
G1 E0.80000 F2100.00000
M204 S1000
G1 F1200
G1 X113.784 Y88.612 E0.11755
G1 X120.632 Y84.554 E0.24958
G1 X121.105 Y84.355 E0.01610
G1 X121.609 Y84.254 E0.01610
G1 X124.275 Y84.196 E0.08362
G1 X124.848 Y84.261 E0.01808
G1 X125.395 Y84.454 E0.01820
G1 X127.872 Y85.948 E0.09067
G1 X137.522 Y94.815 E0.41092
G1 X137.892 Y95.489 E0.02410
G1 X141.783 Y106.432 E0.36418
G1 X141.927 Y107.358 E0.02936
G1 X141.731 Y109.435 E0.06540
G1 X140.229 Y118.954 E0.30218
G1 X140.031 Y119.587 E0.02079
G1 X139.674 Y120.150 E0.02091
G1 X133.955 Y126.279 E0.26281
G1 X131.431 Y128.258 E0.10059
G1 X130.950 Y128.480 E0.01660
G1 X127.012 Y129.770 E0.12993
G1 X122.915 Y130.133 E0.12896
G1 X122.077 Y129.966 E0.02680
G1 X113.066 Y126.384 E0.30404
G1 X112.348 Y125.777 E0.02949
G1 X110.230 Y122.916 E0.11161
G1 X109.869 Y122.154 E0.02643
G1 X108.102 Y115.456 E0.21718
G1 X106.927 Y107.158 E0.26277
G1 X107.006 Y106.599 E0.01771
G1 X110.755 Y92.194 E0.46672
G1 X111.159 Y91.368 E0.02882
G1 X111.482 Y91.545 F10800.000
G1 F1200
G1 X114.005 Y88.917 E0.11421
G1 X120.812 Y84.886 E0.24805
G1 X121.663 Y84.628 E0.02788
G1 X124.275 Y84.573 E0.08193
G1 X124.775 Y84.631 E0.01578
G1 X125.248 Y84.802 E0.01578
G1 X127.641 Y86.246 E0.08763
G1 X137.225 Y95.046 E0.40794
G1 X137.539 Y95.621 E0.02055
G1 X141.427 Y106.554 E0.36384
G1 X141.550 Y107.344 E0.02507
G1 X141.358 Y109.378 E0.06404
G1 X139.860 Y118.878 E0.30154
G1 X139.692 Y119.421 E0.01783
G1 X139.387 Y119.905 E0.01794
G1 X133.691 Y126.009 E0.26177
G1 X131.243 Y127.931 E0.09760
G1 X126.931 Y129.402 E0.14284
G1 X122.927 Y129.756 E0.12602
G1 X122.210 Y129.613 E0.02293
G1 X113.252 Y126.056 E0.30220
G1 X112.632 Y125.529 E0.02552
G1 X110.537 Y122.696 E0.11049
G1 X110.230 Y122.044 E0.02259
G1 X108.471 Y115.377 E0.21620
G1 X107.304 Y107.171 E0.25989
G1 X107.372 Y106.691 E0.01521
G1 X111.119 Y92.294 E0.46644
G1 X111.456 Y91.599 E0.02420
; PURGING FINISHED
G1 F8640
G1 X113.723 Y89.213 E-0.76000
G1 E-0.04000 F2100.00000
G1 Z0.800 F10800.000
G1 X127.406 Y96.179
G1 Z0.200
G1 E0.80000 F2100.00000
G1 F1200
G1 X129.770 Y96.724 E0.07606
G1 X131.431 Y96.759 E0.05209
G1 X134.600 Y97.217 E0.10041
G1 X134.755 Y98.721 E0.04741
G1 X136.094 Y103.781 E0.16412
G1 X138.372 Y107.509 E0.13698
G1 X138.235 Y108.940 E0.04505
G1 X136.802 Y117.905 E0.28467
G1 X136.194 Y118.241 E0.02180
G1 X135.558 Y119.453 E0.04290
G1 X131.504 Y123.736 E0.18490
G1 X129.654 Y125.192 E0.07380
G1 X126.265 Y126.314 E0.11194
G1 X123.151 Y126.587 E0.09802
G1 X120.523 Y125.450 E0.08979
G1 X114.941 Y123.352 E0.18695
G1 X113.248 Y121.061 E0.08932
G1 X112.988 Y119.569 E0.04751
G1 X111.572 Y114.772 E0.15680
G1 X111.415 Y111.076 E0.11601
G1 X110.531 Y107.429 E0.11765
G1 X110.851 Y106.971 E0.01750
G1 X114.193 Y104.834 E0.12439
G1 X118.899 Y99.857 E0.21475
G1 X114.666 Y95.442 E0.19178
G1 X114.081 Y94.179 E0.04365
G1 X114.163 Y93.279 E0.02834
G1 X115.441 Y91.927 E0.05833
G1 X119.279 Y94.255 E0.14074
G1 X122.198 Y94.716 E0.09266
G1 X122.559 Y89.853 E0.15290
G1 X122.743 Y87.755 E0.06604
G1 X124.016 Y87.731 E0.03991
G1 X125.408 Y88.560 E0.05081
G1 X126.353 Y93.124 E0.14613
G1 X126.388 Y93.204 E0.00274
G1 X126.559 Y94.032 E0.02650
G1 X127.384 Y96.123 E0.07048
G1 X127.684 Y95.856 F10800.000
G1 F1200
G1 X129.816 Y96.348 E0.06862
G1 X131.462 Y96.382 E0.05160
G1 X134.945 Y96.886 E0.11036
G1 X135.127 Y98.653 E0.05570
G1 X136.444 Y103.632 E0.16147
G1 X138.759 Y107.420 E0.13920
G1 X138.610 Y108.987 E0.04936
G1 X137.152 Y118.142 E0.29066
G1 X136.475 Y118.517 E0.02425
G1 X135.868 Y119.674 E0.04099
G1 X131.759 Y124.015 E0.18740
G1 X129.835 Y125.529 E0.07674
G1 X126.342 Y126.686 E0.11540
G1 X123.089 Y126.971 E0.10239
G1 X120.381 Y125.799 E0.09249
G1 X114.704 Y123.666 E0.19015
G1 X112.891 Y121.214 E0.09561
G1 X112.620 Y119.655 E0.04963
G1 X111.197 Y114.835 E0.15757
G1 X111.040 Y111.129 E0.11630
G1 X110.125 Y107.353 E0.12181
G1 X110.584 Y106.694 E0.02518
G1 X113.951 Y104.541 E0.12530
G1 X118.378 Y99.859 E0.20204
G1 X114.350 Y95.658 E0.18249
G1 X113.696 Y94.245 E0.04880
G1 X113.799 Y93.115 E0.03560
G1 X115.376 Y91.447 E0.07197
G1 X119.411 Y93.894 E0.14796
G1 X121.852 Y94.280 E0.07749
G1 X122.183 Y89.823 E0.14014
G1 X122.397 Y87.384 E0.07675
G1 X124.116 Y87.352 E0.05391
G1 X125.744 Y88.321 E0.05939
G1 X126.715 Y93.011 E0.15018
G1 X126.749 Y93.092 E0.00274
G1 X126.922 Y93.924 E0.02665
G1 X127.662 Y95.800 E0.06325
G1 X127.962 Y95.533 F10800.000
G1 F1200
G1 X129.863 Y95.972 E0.06118
G1 X131.493 Y96.006 E0.05110
G1 X135.290 Y96.555 E0.12031
G1 X135.499 Y98.585 E0.06400
G1 X136.795 Y103.482 E0.15882
G1 X139.146 Y107.331 E0.14141
G1 X138.984 Y109.035 E0.05368
G1 X137.538 Y118.080 E0.28720
G1 X137.506 Y118.377 E0.00938
G1 X136.756 Y118.792 E0.02685
G1 X136.177 Y119.896 E0.03909
G1 X132.014 Y124.294 E0.18990
G1 X130.017 Y125.866 E0.07968
G1 X126.418 Y127.058 E0.11885
G1 X123.026 Y127.355 E0.10676
G1 X120.240 Y126.149 E0.09520
G1 X114.467 Y123.980 E0.19336
G1 X112.535 Y121.366 E0.10190
G1 X112.252 Y119.741 E0.05174
G1 X110.823 Y114.897 E0.15835
G1 X110.665 Y111.182 E0.11660
G1 X109.718 Y107.277 E0.12598
G1 X110.318 Y106.417 E0.03286
G1 X113.708 Y104.248 E0.12620
G1 X117.857 Y99.861 E0.18933
G1 X114.034 Y95.873 E0.17321
G1 X113.312 Y94.312 E0.05395
G1 X113.436 Y92.950 E0.04287
G1 X115.312 Y90.967 E0.08561
G1 X119.543 Y93.534 E0.15519
G1 X121.507 Y93.844 E0.06232
G1 X121.808 Y89.792 E0.12737
G1 X122.051 Y87.014 E0.08745
G1 X124.217 Y86.973 E0.06791
G1 X126.079 Y88.082 E0.06797
G1 X127.077 Y92.899 E0.15422
G1 X127.111 Y92.979 E0.00274
G1 X127.284 Y93.816 E0.02679
G1 X127.940 Y95.478 E0.05601
G1 X127.944 Y95.933 F10800.000
G1 F8640
G1 X129.863 Y95.972 E-0.45855
G1 X131.169 Y95.999 E-0.30145
G1 E-0.04000 F2100.00000
G1 Z0.800 F10800.000
G1 X125.516 Y89.640
G1 Z0.200
G1 E0.80000 F2100.00000
G1 F1200
G1 X123.892 Y88.016 E0.07226
G1 X123.367 Y88.026 E0.01653
G1 X125.437 Y90.096 E0.09212
G1 X125.577 Y90.771 E0.02169
G1 X122.990 Y88.184 E0.11514
G1 X122.946 Y88.676 E0.01554
G1 X125.717 Y91.446 E0.12329
G1 X125.857 Y92.121 E0.02169
G1 X122.903 Y89.168 E0.13143
G1 X122.860 Y89.660 E0.01554
G1 X125.997 Y92.796 E0.13957
G1 X126.159 Y93.493 E0.02251
G1 X122.820 Y90.155 E0.14853
G1 X122.783 Y90.653 E0.01572
G1 X126.315 Y94.185 E0.15716
G1 X126.664 Y95.069 E0.02989
G1 X122.746 Y91.151 E0.17431
G1 X122.709 Y91.649 E0.01572
G1 X127.012 Y95.952 E0.19147
G1 X127.197 Y96.421 E0.01586
G1 X127.566 Y96.506 E0.01192
G1 X137.721 Y106.661 E0.45183
G1 F8640
G1 X135.393 Y104.333 E-0.76000
G1 E-0.04000 F2100.00000
G1 Z0.800 F10800.000
G1 X138.239 Y107.714
G1 Z0.200
G1 E0.80000 F2100.00000
G1 F1200
G1 X122.672 Y92.148 E0.69266
G1 X122.635 Y92.646 E0.01572
G1 X138.036 Y108.047 E0.68531
G1 X137.990 Y108.535 E0.01544
G1 X122.598 Y93.144 E0.68488
G1 X122.561 Y93.642 E0.01572
G1 X137.937 Y109.017 E0.68416
G1 X137.863 Y109.479 E0.01470
G1 X122.524 Y94.140 E0.68252
G1 X122.487 Y94.638 E0.01572
G1 X137.789 Y109.940 E0.68088
G1 X137.715 Y110.401 E0.01470
G1 X122.339 Y95.025 E0.68421
G1 X121.703 Y94.925 E0.02024
G1 X137.642 Y110.863 E0.70920
G1 X137.568 Y111.324 E0.01470
G1 X121.068 Y94.824 E0.73420
G1 X120.432 Y94.724 E0.02024
G1 X137.494 Y111.785 E0.75920
G1 X137.420 Y112.247 E0.01470
G1 X119.797 Y94.623 E0.78419
G1 X119.180 Y94.526 E0.01965
G1 X119.140 Y94.502 E0.00147
G1 X137.346 Y112.708 E0.81014
G1 X137.273 Y113.170 E0.01470
G1 X117.275 Y93.172 E0.88984
G1 F8640
G1 X119.602 Y95.499 E-0.76000
G1 E-0.04000 F2100.00000
G1 Z0.800 F10800.000
G1 X115.915 Y92.347
G1 Z0.200
G1 E0.80000 F2100.00000
G1 F1200
G1 X137.347 Y113.779 E0.95368
G1 X137.273 Y114.240 F10800.000
G1 F1200
G1 X115.407 Y92.374 E0.97298
G1 X115.147 Y92.650 E0.01191
G1 X137.051 Y114.554 E0.97467
G1 X136.978 Y115.015 E0.01470
G1 X114.887 Y92.925 E0.98297
M73 Q0 S119
M73 P0 R119
G1 X114.627 Y93.200 E0.01191
G1 X136.904 Y115.476 E0.99126
G1 X136.830 Y115.938 E0.01470
G1 X114.424 Y93.532 E0.99701
G1 X114.379 Y94.022 E0.01550
G1 X136.756 Y116.399 E0.99572
G1 X136.682 Y116.860 E0.01470
G1 X114.382 Y94.560 E0.99231
G1 F8640
G1 X116.709 Y96.887 E-0.76000
G1 E-0.04000 F2100.00000
G1 Z0.800 F10800.000
G1 X124.654 Y88.243
G1 Z0.200
G1 E0.80000 F2100.00000
G1 F1200
G1 X125.376 Y88.965 E0.03213
G1 F8640
G1 X124.654 Y88.243 E-0.23581
G1 E-0.56419 F2100.00000
G1 Z0.800 F10800.000
G1 X134.585 Y98.174
G1 Z0.200
G1 E0.80000 F2100.00000
G1 F1200
G1 X133.798 Y97.387 E0.03501
G1 X133.173 Y97.296 E0.01989
G1 X134.456 Y98.580 E0.05711
G1 X134.476 Y98.772 E0.00608
G1 X134.606 Y99.265 E0.01605
G1 X132.547 Y97.206 E0.09164
G1 X131.922 Y97.116 E0.01989
G1 X134.799 Y99.993 E0.12804
G1 X134.991 Y100.721 E0.02368
G1 X131.310 Y97.039 E0.16381
G1 X130.763 Y97.028 E0.01720
G1 X135.184 Y101.448 E0.19670
G1 X135.376 Y102.176 E0.02368
G1 X130.217 Y97.016 E0.22959
G1 X129.735 Y97.006 E0.01517
G1 X129.653 Y96.987 E0.00265
G1 X135.569 Y102.903 E0.26326
G1 X135.761 Y103.631 E0.02368
G1 X128.957 Y96.827 E0.30276
G1 X128.262 Y96.667 E0.02245
G1 X136.880 Y105.284 E0.38347
G1 F8640
G1 X134.552 Y102.957 E-0.76000
G1 E-0.04000 F2100.00000
G1 Z0.800 F10800.000
G1 X136.757 Y117.470
G1 Z0.200
G1 E0.80000 F2100.00000
G1 F1200
G1 X119.218 Y99.931 E0.78043
G1 X118.958 Y100.206 E0.01191
G1 X136.500 Y117.748 E0.78058
G1 X136.156 Y117.939 E0.01239
G1 X118.698 Y100.481 E0.77683
G1 X118.438 Y100.756 E0.01191
G1 X135.891 Y118.210 E0.77662
G1 X135.707 Y118.561 E0.01247
G1 X118.178 Y101.031 E0.78000
G1 X117.918 Y101.306 E0.01191
G1 X135.523 Y118.912 E0.78338
G1 X135.338 Y119.262 E0.01247
G1 X117.657 Y101.582 E0.78676
G1 X117.397 Y101.857 E0.01191
G1 X135.084 Y119.543 E0.78699
G1 X134.823 Y119.818 E0.01191
G1 X117.137 Y102.132 E0.78698
G1 X116.877 Y102.407 E0.01191
G1 X134.563 Y120.093 E0.78698
G1 X134.303 Y120.367 E0.01191
G1 X116.617 Y102.682 E0.78697
G1 X116.357 Y102.957 E0.01191
G1 X134.043 Y120.642 E0.78697
G1 X133.782 Y120.917 E0.01191
G1 X116.097 Y103.232 E0.78696
G1 X115.837 Y103.507 E0.01191
G1 X133.522 Y121.192 E0.78695
G1 X133.262 Y121.467 E0.01191
G1 X115.577 Y103.782 E0.78695
G1 X115.317 Y104.057 E0.01191
G1 X133.002 Y121.742 E0.78694
G1 X132.742 Y122.017 E0.01191
G1 X115.056 Y104.332 E0.78694
G1 X114.796 Y104.607 E0.01191
G1 X132.481 Y122.292 E0.78693
G1 X132.221 Y122.567 E0.01191
G1 X114.536 Y104.882 E0.78693
G1 X114.374 Y105.053 E0.00741
G1 X114.251 Y105.132 E0.00460
G1 X131.961 Y122.842 E0.78804
G1 X131.701 Y123.117 E0.01191
G1 X113.925 Y105.341 E0.79098
G1 X113.598 Y105.550 E0.01219
G1 X131.440 Y123.392 E0.79393
G1 X131.313 Y123.526 E0.00584
G1 X131.160 Y123.647 E0.00611
G1 X113.272 Y105.758 E0.79598
G1 X112.946 Y105.967 E0.01219
G1 X130.861 Y123.882 E0.79718
G1 X130.561 Y124.118 E0.01199
G1 X112.619 Y106.176 E0.79838
G1 X112.293 Y106.385 E0.01219
G1 X130.262 Y124.354 E0.79957
G1 X129.962 Y124.589 E0.01199
G1 X111.966 Y106.593 E0.80077
G1 X111.640 Y106.802 E0.01219
G1 X129.663 Y124.825 E0.80197
G1 X129.518 Y124.939 E0.00579
G1 X129.310 Y125.008 E0.00689
G1 X111.314 Y107.011 E0.80081
G1 X111.050 Y107.179 E0.00983
G1 X111.008 Y107.240 E0.00234
G1 X128.908 Y125.141 E0.79653
G1 X128.506 Y125.274 E0.01332
G1 X110.874 Y107.641 E0.78461
G1 X111.045 Y108.348 E0.02287
G1 X128.104 Y125.407 E0.75910
G1 X127.702 Y125.540 E0.01332
G1 X111.216 Y109.054 E0.73359
G1 X111.387 Y109.760 E0.02287
G1 X127.300 Y125.673 E0.70809
G1 X126.898 Y125.806 E0.01332
G1 X111.559 Y110.467 E0.68258
G1 X111.697 Y111.036 E0.01844
G1 X111.701 Y111.144 E0.00341
G1 X126.496 Y125.939 E0.65834
G1 X126.207 Y126.035 E0.00958
G1 X126.069 Y126.047 E0.00437
G1 X111.725 Y111.703 E0.63827
G1 X111.749 Y112.262 E0.01760
G1 X125.577 Y126.090 E0.61532
G1 X125.085 Y126.134 E0.01554
G1 X111.772 Y112.821 E0.59237
G1 X111.796 Y113.380 E0.01760
G1 X124.593 Y126.177 E0.56942
M73 Q1 S118
M73 P1 R118
G1 X124.101 Y126.220 E0.01554
G1 X111.820 Y113.939 E0.54648
G1 X111.844 Y114.498 E0.01760
G1 X123.609 Y126.263 E0.52353
G1 X123.197 Y126.299 E0.01300
G1 X123.043 Y126.232 E0.00529
G1 X111.986 Y115.175 E0.49201
G1 X112.210 Y115.934 E0.02491
G1 X122.100 Y125.824 E0.44006
G1 X121.156 Y125.416 E0.03234
G1 X112.434 Y116.694 E0.38811
G1 X112.658 Y117.453 E0.02491
G1 X120.251 Y125.045 E0.33785
G1 X119.393 Y124.723 E0.02882
G1 X112.882 Y118.212 E0.28972
G1 X113.107 Y118.972 E0.02491
G1 X118.536 Y124.401 E0.24159
G1 X117.679 Y124.079 E0.02882
G1 X113.297 Y119.698 E0.19495
G1 X113.410 Y120.345 E0.02069
G1 X116.821 Y123.756 E0.15179
G1 X115.964 Y123.434 E0.02882
G1 X113.314 Y120.785 E0.11790
M106 S255
;BEFORE_LAYER_CHANGE
G92 E0.0
;0.4


G1 F8640
G1 X115.642 Y123.112 E-0.76000
G1 E-0.04000 F2100.00000
G1 Z0.800 F10800.000
;AFTER_LAYER_CHANGE
;0.4
; PURGING FINISHED
G1 X127.369 Y96.170
G1 Z0.400
G1 E0.80000 F2100.00000
M204 S800
G1 F2700
G1 X129.914 Y96.757 E0.08842
G1 X131.132 Y96.782 E0.04122
G1 X134.555 Y97.277 E0.11708
G1 X134.722 Y98.902 E0.05530
G1 X135.946 Y103.529 E0.16199
G1 X138.404 Y107.551 E0.15955
G1 X138.249 Y109.176 E0.05527
G1 X136.873 Y117.783 E0.29502
G1 X136.197 Y118.157 E0.02615
G1 X135.499 Y119.487 E0.05084
G1 X131.551 Y123.658 E0.19439
G1 X129.543 Y125.238 E0.08649
G1 X126.408 Y126.276 E0.11179
G1 X123.086 Y126.567 E0.11289
G1 X120.980 Y125.656 E0.07767
G1 X114.850 Y123.352 E0.22165
G1 X113.355 Y121.330 E0.08515
G1 X113.067 Y119.673 E0.05692
G1 X111.499 Y114.363 E0.18738
G1 X111.325 Y110.272 E0.13861
G1 X110.617 Y107.350 E0.10177
G1 X110.966 Y106.850 E0.02064
G1 X114.592 Y104.531 E0.14569
G1 X118.969 Y99.902 E0.21564
G1 X115.052 Y95.817 E0.19158
G1 X114.351 Y94.301 E0.05652
G1 X114.452 Y93.192 E0.03770
G1 X115.466 Y92.120 E0.04996
G1 X119.197 Y94.382 E0.14768
G1 X122.374 Y94.884 E0.10888
G1 X122.769 Y89.571 E0.18031
G1 X122.918 Y87.868 E0.05789
G1 X123.836 Y87.850 E0.03107
G1 X125.385 Y88.773 E0.06102
G1 X126.260 Y92.997 E0.14601
G1 X126.362 Y93.238 E0.00888
G1 X126.527 Y94.036 E0.02757
G1 X127.347 Y96.114 E0.07562
M204 S1000
G1 X127.669 Y95.821 F10800.000
M204 S800
G1 F2700
G1 X129.965 Y96.351 E0.07975
G1 X131.165 Y96.376 E0.04064
G1 X134.928 Y96.920 E0.12867
G1 X135.124 Y98.829 E0.06497
G1 X136.325 Y103.367 E0.15890
G1 X138.822 Y107.454 E0.16213
G1 X138.653 Y109.228 E0.06030
G1 X137.248 Y118.040 E0.30206
G1 X136.501 Y118.454 E0.02891
G1 X135.833 Y119.726 E0.04862
G1 X131.826 Y123.959 E0.19730
G1 X129.739 Y125.602 E0.08991
G1 X126.491 Y126.677 E0.11582
G1 X123.019 Y126.982 E0.11799
G1 X120.827 Y126.034 E0.08082
G1 X114.594 Y123.691 E0.22538
G1 X112.970 Y121.494 E0.09248
G1 X112.669 Y119.766 E0.05939
G1 X111.095 Y114.431 E0.18828
G1 X110.920 Y110.329 E0.13896
G1 X110.178 Y107.268 E0.10663
G1 X110.678 Y106.550 E0.02959
G1 X114.331 Y104.215 E0.14674
G1 X118.407 Y99.904 E0.20082
G1 X114.711 Y96.049 E0.18076
G1 X113.936 Y94.373 E0.06251
G1 X114.059 Y93.015 E0.04617
G1 X115.396 Y91.601 E0.06585
G1 X119.339 Y93.992 E0.15609
G1 X122.001 Y94.413 E0.09121
G1 X122.363 Y89.539 E0.16543
