; generated by Slic3r Prusa Edition 1.41.3+win64 on 2019-03-19 at 16:47:35

; 

; external perimeters extrusion width = 0.45mm
; perimeters extrusion width = 0.45mm
; infill extrusion width = 0.45mm
; solid infill extrusion width = 0.45mm
; top infill extrusion width = 0.40mm
; first layer extrusion width = 0.42mm

M73 P0 R32
M73 Q0 S32
M201 X1000 Y1000 Z1000 E5000 ; sets maximum accelerations, mm/sec^2
M203 X200 Y200 Z12 E120 ; sets maximum feedrates, mm/sec
M204 P1250 R1250 T1250 ; sets acceleration (P, T) and retract acceleration (R), mm/sec^2
M205 X8.00 Y8.00 Z0.40 E1.50 ; sets the jerk limits, mm/sec
M205 S0 T0 ; sets the minimum extruding and travel feed rate, mm/sec
M107
M115 U3.6.0 ; tell printer latest fw version
M83  ; extruder relative mode
M104 S215 ; set extruder temp
M140 S60 ; set bed temp
M190 S60 ; wait for bed temp
M109 S215 ; wait for extruder temp
G28 W ; home all without mesh bed level
G80 ; mesh bed leveling
G1 Y-3.0 F1000.0 ; go outside print area
G92 E0.0
G1 X60.0 E9.0  F1000.0 ; intro line
M73 Q0 S32
M73 P0 R32
G1 X100.0 E12.5  F1000.0 ; intro line
G92 E0.0
M221 S95
M900 K30 ; Filament gcode
G21 ; set units to millimeters
G90 ; use absolute coordinates
M83 ; use relative distances for extrusion
;BEFORE_LAYER_CHANGE
G92 E0.0
;0.2


G1 E-0.80000 F2100.00000
G1 Z0.600 F10800.000
;AFTER_LAYER_CHANGE
;0.2
G1 X220.842 Y66.704
G1 Z0.200
G1 E0.80000 F2100.00000
M204 S1000
G1 F1200
G1 X220.386 Y67.394 E0.02594
G1 X220.004 Y67.732 E0.01598
G1 X219.563 Y67.988 E0.01598
G1 X219.081 Y68.152 E0.01598
G1 X218.575 Y68.217 E0.01598
G1 X192.442 Y68.166 E0.81939
G1 X191.183 Y67.994 E0.03983
G1 X190.092 Y67.742 E0.03510
G1 X188.728 Y67.282 E0.04514
G1 X187.725 Y66.831 E0.03448
G1 X186.686 Y66.238 E0.03752
G1 X185.712 Y65.553 E0.03731
G1 X184.821 Y64.790 E0.03679
G1 X183.970 Y63.907 E0.03845
G1 X183.277 Y63.040 E0.03480
G1 X182.512 Y61.872 E0.04378
G1 X181.684 Y60.188 E0.05885
G1 X181.279 Y59.062 E0.03752
G1 X180.981 Y57.925 E0.03686
G1 X180.759 Y56.550 E0.04367
G1 X180.689 Y55.445 E0.03469
G1 X180.720 Y54.264 E0.03705
G1 X180.892 Y52.944 E0.04173
G1 X181.135 Y51.879 E0.03425
G1 X181.501 Y50.765 E0.03678
G1 X181.987 Y49.649 E0.03815
G1 X182.522 Y48.682 E0.03467
G1 X183.305 Y47.529 E0.04369
G1 X184.548 Y46.115 E0.05903
G1 X185.430 Y45.311 E0.03742
G1 X186.372 Y44.597 E0.03704
G1 X187.557 Y43.868 E0.04364
G1 X188.551 Y43.379 E0.03471
G1 X189.661 Y42.957 E0.03724
G1 X190.809 Y42.639 E0.03736
G1 X191.885 Y42.449 E0.03428
G1 X193.277 Y42.338 E0.04377
G1 X195.512 Y42.487 E0.07023
G1 X196.879 Y42.776 E0.04381
G1 X198.650 Y43.379 E0.05865
G1 X199.787 Y43.920 E0.03949
G1 X200.816 Y44.530 E0.03751
G1 X220.244 Y58.674 E0.75347
G1 X220.587 Y59.062 E0.01623
G1 X220.844 Y59.510 E0.01623
G1 X221.007 Y60.002 E0.01623
G1 X221.068 Y60.515 E0.01623
G1 X221.055 Y65.905 E0.16898
G1 X220.858 Y66.646 E0.02406
G1 F8640
G1 X220.386 Y67.394 E-0.20423
G1 X220.004 Y67.732 E-0.11768
G1 X219.563 Y67.988 E-0.11768
G1 X219.081 Y68.152 E-0.11768
G1 X218.575 Y68.217 E-0.11768
G1 X218.207 Y68.216 E-0.08507
G1 E-0.04000 F2100.00000
G1 Z0.800 F10800.000
G1 X219.412 Y67.643
G1 Z0.200
G1 E0.80000 F2100.00000
G1 F1200
G1 X218.556 Y67.840 E0.02754
G1 X192.464 Y67.789 E0.81808
G1 X191.250 Y67.623 E0.03842
G1 X190.179 Y67.375 E0.03447
G1 X188.882 Y66.938 E0.04290
G1 X187.898 Y66.496 E0.03384
G1 X186.890 Y65.921 E0.03637
G1 X185.946 Y65.257 E0.03621
G1 X185.088 Y64.523 E0.03537
G1 X184.255 Y63.660 E0.03762
G1 X183.575 Y62.809 E0.03416
G1 X182.843 Y61.690 E0.04193
G1 X182.035 Y60.052 E0.05727
G1 X181.639 Y58.949 E0.03673
G1 X181.348 Y57.841 E0.03592
G1 X181.135 Y56.525 E0.04182
G1 X181.066 Y55.441 E0.03404
G1 X181.096 Y54.290 E0.03609
G1 X181.260 Y53.027 E0.03993
G1 X181.498 Y51.983 E0.03360
G1 X181.853 Y50.901 E0.03570
G1 X182.326 Y49.815 E0.03713
G1 X182.851 Y48.865 E0.03403
G1 X183.602 Y47.762 E0.04184
G1 X184.808 Y46.388 E0.05732
G1 X185.672 Y45.600 E0.03667
G1 X186.589 Y44.906 E0.03605
G1 X187.724 Y44.206 E0.04181
G1 X188.699 Y43.726 E0.03407
G1 X189.776 Y43.316 E0.03612
G1 X190.894 Y43.007 E0.03638
G1 X191.949 Y42.820 E0.03361
G1 X193.276 Y42.715 E0.04173
G1 X195.464 Y42.861 E0.06876
G1 X196.773 Y43.137 E0.04193
G1 X198.496 Y43.724 E0.05709
G1 X199.611 Y44.253 E0.03870
G1 X200.622 Y44.853 E0.03684
G1 X219.974 Y58.938 E0.75047
G1 X220.495 Y59.654 E0.02777
G1 X220.690 Y60.517 E0.02777
G1 X220.683 Y65.838 E0.16683
G1 X220.509 Y66.526 E0.02225
G1 X220.121 Y67.125 E0.02236
G1 X219.460 Y67.607 E0.02566
; PURGING FINISHED
G1 F8640
G1 X218.556 Y67.840 E-0.21565
G1 X216.198 Y67.835 E-0.54435
G1 E-0.04000 F2100.00000
G1 Z0.800 F10800.000
G1 X217.538 Y64.688
G1 Z0.200
G1 E0.80000 F2100.00000
G1 F1200
G1 X193.666 Y64.688 E0.74850
G1 X192.715 Y64.646 E0.02983
G1 X191.815 Y64.520 E0.02849
G1 X190.950 Y64.318 E0.02788
G1 X190.120 Y64.038 E0.02745
G1 X189.329 Y63.685 E0.02717
G1 X188.582 Y63.259 E0.02695
G1 X187.879 Y62.765 E0.02695
G1 X187.224 Y62.203 E0.02706
G1 X186.621 Y61.576 E0.02726
G1 X186.074 Y60.885 E0.02763
G1 X185.582 Y60.128 E0.02833
G1 X185.258 Y59.526 E0.02144
G1 X184.968 Y58.894 E0.02180
G1 X184.651 Y58.014 E0.02931
G1 X184.421 Y57.134 E0.02851
G1 X184.277 Y56.257 E0.02786
G1 X184.219 Y55.384 E0.02746
G1 X184.242 Y54.522 E0.02702
G1 X184.348 Y53.665 E0.02708
G1 X184.537 Y52.826 E0.02696
G1 X184.806 Y52.007 E0.02703
G1 X185.155 Y51.209 E0.02731
G1 X185.584 Y50.439 E0.02764
G1 X186.095 Y49.692 E0.02837
G1 X186.524 Y49.165 E0.02133
G1 X187.000 Y48.656 E0.02183
G1 X187.690 Y48.024 E0.02935
G1 X188.414 Y47.477 E0.02844
G1 X189.172 Y47.007 E0.02795
G1 X189.951 Y46.621 E0.02725
G1 X190.764 Y46.311 E0.02731
G1 X191.593 Y46.082 E0.02695
G1 X192.440 Y45.935 E0.02696
G1 X193.301 Y45.868 E0.02707
G1 X194.163 Y45.886 E0.02705
G1 X195.047 Y45.987 E0.02788
G1 X195.930 Y46.176 E0.02834
G1 X196.584 Y46.370 E0.02138
G1 X197.233 Y46.613 E0.02174
G1 X198.130 Y47.037 E0.03111
G1 X198.956 Y47.530 E0.03014
G1 X199.712 Y48.090 E0.02952
G1 X200.397 Y48.713 E0.02902
G1 X201.008 Y49.393 E0.02868
G1 X201.545 Y50.130 E0.02856
G1 X202.003 Y50.917 E0.02857
G1 X202.381 Y51.753 E0.02878
G1 X202.679 Y52.633 E0.02912
G1 X202.893 Y53.577 E0.03033
G1 X203.469 Y56.801 E0.10268
G1 X203.825 Y57.926 E0.03702
G1 X204.194 Y58.802 E0.02980
G1 X204.541 Y59.441 E0.02280
G1 X204.948 Y60.023 E0.02226
G1 X205.272 Y60.394 E0.01544
G1 X205.634 Y60.727 E0.01543
G1 X206.040 Y61.016 E0.01563
G1 X206.494 Y61.252 E0.01605
G1 X206.968 Y61.413 E0.01568
G1 X207.264 Y61.477 E0.00950
G1 X207.760 Y61.522 E0.01561
G1 X217.538 Y61.522 E0.30659
G1 X217.538 Y64.628 E0.09739
G1 X217.915 Y65.065 F10800.000
G1 F1200
G1 X193.658 Y65.065 E0.76058
G1 X192.681 Y65.021 E0.03065
G1 X191.746 Y64.891 E0.02959
G1 X190.846 Y64.681 E0.02898
G1 X189.983 Y64.390 E0.02858
G1 X189.158 Y64.022 E0.02831
G1 X188.380 Y63.578 E0.02809
G1 X187.647 Y63.063 E0.02808
G1 X186.965 Y62.477 E0.02820
G1 X186.337 Y61.824 E0.02839
G1 X185.767 Y61.106 E0.02875
G1 X185.257 Y60.320 E0.02938
G1 X184.920 Y59.694 E0.02231
G1 X184.619 Y59.036 E0.02267
G1 X184.290 Y58.126 E0.03034
G1 X184.052 Y57.213 E0.02959
G1 X183.902 Y56.301 E0.02898
G1 X183.842 Y55.391 E0.02858
G1 X183.865 Y54.494 E0.02814
G1 X183.976 Y53.600 E0.02824
G1 X184.173 Y52.726 E0.02811
G1 X184.453 Y51.872 E0.02816
G1 X184.816 Y51.041 E0.02845
G1 X185.263 Y50.240 E0.02875
G1 X185.793 Y49.467 E0.02940
G1 X186.240 Y48.917 E0.02222
G1 X186.734 Y48.388 E0.02270
G1 X187.449 Y47.734 E0.03037
G1 X188.201 Y47.166 E0.02955
G1 X188.988 Y46.678 E0.02906
G1 X189.799 Y46.275 E0.02838
G1 X190.647 Y45.952 E0.02844
G1 X191.510 Y45.714 E0.02809
G1 X192.393 Y45.560 E0.02809
G1 X193.290 Y45.491 E0.02821
G1 X194.188 Y45.510 E0.02817
G1 X195.107 Y45.614 E0.02900
G1 X196.024 Y45.810 E0.02938
G1 X196.704 Y46.013 E0.02226
G1 X197.380 Y46.265 E0.02264
G1 X198.308 Y46.704 E0.03217
G1 X199.165 Y47.215 E0.03129
G1 X199.952 Y47.798 E0.03070
G1 X200.665 Y48.447 E0.03022
G1 X201.302 Y49.156 E0.02988
G1 X201.861 Y49.923 E0.02977
G1 X202.339 Y50.744 E0.02979
G1 X202.733 Y51.615 E0.02997
G1 X203.043 Y52.531 E0.03032
G1 X203.263 Y53.502 E0.03122
G1 X203.836 Y56.710 E0.10219
G1 X204.180 Y57.796 E0.03571
G1 X204.534 Y58.639 E0.02866
G1 X204.862 Y59.242 E0.02154
G1 X205.245 Y59.790 E0.02096
G1 X205.542 Y60.130 E0.01415
G1 X205.872 Y60.434 E0.01404
G1 X206.237 Y60.694 E0.01407
G1 X206.642 Y60.905 E0.01432
G1 X207.069 Y61.049 E0.01411
G1 X207.321 Y61.104 E0.00811
G1 X207.777 Y61.145 E0.01434
G1 X217.915 Y61.145 E0.31789
G1 X217.915 Y65.005 E0.12104
G1 X218.292 Y65.442 F10800.000
G1 F1200
G1 X193.649 Y65.442 E0.77267
G1 X192.646 Y65.397 E0.03147
G1 X191.677 Y65.262 E0.03069
G1 X190.743 Y65.044 E0.03009
G1 X189.845 Y64.741 E0.02970
G1 X188.987 Y64.358 E0.02945
G1 X188.177 Y63.897 E0.02923
G1 X187.415 Y63.361 E0.02921
G1 X186.705 Y62.751 E0.02933
G1 X186.053 Y62.073 E0.02952
G1 X185.461 Y61.326 E0.02987
G1 X184.932 Y60.513 E0.03042
G1 X184.582 Y59.861 E0.02318
G1 X184.270 Y59.179 E0.02354
G1 X183.930 Y58.238 E0.03137
G1 X183.683 Y57.291 E0.03067
G1 X183.527 Y56.344 E0.03010
G1 X183.464 Y55.399 E0.02970
G1 X183.489 Y54.466 E0.02926
G1 X183.604 Y53.535 E0.02939
G1 X183.809 Y52.625 E0.02925
G1 X184.100 Y51.738 E0.02928
G1 X184.478 Y50.873 E0.02958
G1 X184.942 Y50.041 E0.02987
G1 X185.490 Y49.241 E0.03043
G1 X185.956 Y48.669 E0.02311
G1 X186.469 Y48.119 E0.02357
G1 X187.207 Y47.443 E0.03139
G1 X187.987 Y46.854 E0.03065
G1 X188.805 Y46.348 E0.03016
G1 X189.648 Y45.929 E0.02951
G1 X190.529 Y45.593 E0.02957
G1 X191.428 Y45.345 E0.02923
G1 X192.346 Y45.186 E0.02923
G1 X193.279 Y45.113 E0.02935
G1 X194.214 Y45.133 E0.02930
G1 X195.168 Y45.242 E0.03012
G1 X196.117 Y45.444 E0.03042
G1 X196.824 Y45.655 E0.02313
G1 X197.527 Y45.918 E0.02355
G1 X198.486 Y46.371 E0.03324
G1 X199.374 Y46.901 E0.03245
G1 X200.192 Y47.506 E0.03189
G1 X200.933 Y48.180 E0.03141
G1 X201.595 Y48.918 E0.03108
G1 X202.177 Y49.717 E0.03097
G1 X202.675 Y50.571 E0.03100
G1 X203.084 Y51.476 E0.03116
G1 X203.406 Y52.428 E0.03151
G1 X203.632 Y53.427 E0.03210
G1 X204.203 Y56.620 E0.10170
G1 X204.534 Y57.666 E0.03440
G1 X204.874 Y58.475 E0.02752
G1 X205.184 Y59.043 E0.02029
G1 X205.543 Y59.558 E0.01966
G1 X205.813 Y59.867 E0.01287
G1 X206.110 Y60.140 E0.01266
G1 X206.434 Y60.371 E0.01250
G1 X206.791 Y60.557 E0.01259
G1 X207.170 Y60.685 E0.01254
G1 X207.378 Y60.730 E0.00671
G1 X207.794 Y60.768 E0.01307
G1 X218.292 Y60.768 E0.32918
G1 X218.292 Y65.382 E0.14468
G1 X217.896 Y65.386 F10800.000
G1 F8640
G1 X215.001 Y65.390 E-0.76000
G1 E-0.04000 F2100.00000
G1 Z0.800 F10800.000
G1 X217.425 Y62.404
G1 Z0.200
G1 E0.80000 F2100.00000
G1 F1200
G1 X216.825 Y61.805 E0.02684
G1 X216.287 Y61.805 E0.01703
G1 X217.255 Y62.773 E0.04333
G1 X217.255 Y63.311 E0.01703
G1 X215.749 Y61.805 E0.06741
G1 X215.211 Y61.805 E0.01703
G1 X217.255 Y63.849 E0.09149
G1 X217.255 Y64.387 E0.01703
G1 X214.673 Y61.805 E0.11556
G1 X214.135 Y61.805 E0.01703
G1 X216.735 Y64.405 E0.11636
G1 X216.197 Y64.405 E0.01703
G1 X213.596 Y61.805 E0.11636
G1 X213.058 Y61.805 E0.01703
G1 X215.659 Y64.405 E0.11636
G1 X215.121 Y64.405 E0.01703
G1 X212.520 Y61.805 E0.11636
G1 X211.982 Y61.805 E0.01703
G1 X214.583 Y64.405 E0.11636
G1 X214.044 Y64.405 E0.01703
G1 X211.444 Y61.805 E0.11636
G1 X210.906 Y61.805 E0.01703
G1 X213.506 Y64.405 E0.11636
G1 X212.968 Y64.405 E0.01703
G1 X210.368 Y61.805 E0.11636
G1 X209.830 Y61.805 E0.01703
G1 X212.430 Y64.405 E0.11636
G1 X211.892 Y64.405 E0.01703
G1 X209.291 Y61.805 E0.11636
G1 X208.753 Y61.805 E0.01703
G1 X211.354 Y64.405 E0.11636
G1 X210.816 Y64.405 E0.01703
G1 X208.215 Y61.805 E0.11636
G1 X207.670 Y61.798 E0.01725
G1 X210.278 Y64.405 E0.11667
G1 X209.739 Y64.405 E0.01703
G1 X207.056 Y61.721 E0.12009
G1 X206.892 Y61.686 E0.00529
G1 X206.383 Y61.513 E0.01701
G1 X206.230 Y61.434 E0.00544
G1 X209.201 Y64.405 E0.13295
G1 X208.663 Y64.405 E0.01703
G1 X190.842 Y46.584 E0.79742
G1 X190.452 Y46.732 E0.01319
G1 X208.125 Y64.405 E0.79077
G1 X207.587 Y64.405 E0.01703
G1 X190.063 Y46.881 E0.78412
G1 X189.703 Y47.060 E0.01270
G1 X207.049 Y64.405 E0.77614
G1 X206.511 Y64.405 E0.01703
G1 X189.344 Y47.238 E0.76815
G1 X189.009 Y47.441 E0.01239
G1 X205.973 Y64.405 E0.75905
G1 X205.434 Y64.405 E0.01703
G1 X188.676 Y47.647 E0.74984
G1 X188.362 Y47.871 E0.01221
G1 X204.896 Y64.405 E0.73983
G1 X204.358 Y64.405 E0.01703
G1 X188.055 Y48.102 E0.72947
G1 X187.759 Y48.344 E0.01210
G1 X203.820 Y64.405 E0.71865
G1 X203.282 Y64.405 E0.01703
G1 X187.478 Y48.601 E0.70715
G1 X187.197 Y48.859 E0.01205
G1 X202.744 Y64.405 E0.69564
G1 X202.206 Y64.405 E0.01703
G1 X186.937 Y49.137 E0.68319
G1 X186.682 Y49.419 E0.01205
G1 X201.668 Y64.405 E0.67055
G1 X201.129 Y64.405 E0.01703
G1 X186.440 Y49.716 E0.65727
G1 X186.211 Y50.024 E0.01217
G1 X200.591 Y64.405 E0.64347
G1 X200.053 Y64.405 E0.01703
G1 X185.992 Y50.344 E0.62919
G1 X185.779 Y50.669 E0.01230
G1 X199.515 Y64.405 E0.61462
G1 X198.977 Y64.405 E0.01703
G1 X185.587 Y51.015 E0.59916
G1 X185.396 Y51.362 E0.01254
G1 X198.439 Y64.405 E0.58360
G1 X197.901 Y64.405 E0.01703
G1 X185.232 Y51.737 E0.56685
G1 X185.069 Y52.111 E0.01293
G1 X197.363 Y64.405 E0.55008
G1 X196.824 Y64.405 E0.01703
G1 X184.936 Y52.517 E0.53195
G1 X184.805 Y52.924 E0.01353
G1 X196.286 Y64.405 E0.51374
M73 Q3 S31
M73 P3 R31
G1 X195.748 Y64.405 E0.01703
G1 X184.706 Y53.363 E0.49409
G1 X184.615 Y53.810 E0.01444
G1 X195.210 Y64.405 E0.47409
G1 X194.672 Y64.405 E0.01703
G1 X184.556 Y54.289 E0.45266
G1 X184.518 Y54.789 E0.01587
G1 X194.134 Y64.405 E0.43028
G1 X193.592 Y64.402 E0.01714
G1 X184.504 Y55.313 E0.40666
G1 X184.536 Y55.883 E0.01806
G1 X193.029 Y64.376 E0.38004
G1 X192.741 Y64.364 E0.00911
G1 X192.435 Y64.321 E0.00977
G1 X184.601 Y56.487 E0.35053
G1 X184.715 Y57.139 E0.02093
G1 X191.803 Y64.227 E0.31716
G1 X191.100 Y64.062 E0.02283
G1 X184.905 Y57.867 E0.27723
G1 X185.199 Y58.699 E0.02792
G1 X190.300 Y63.800 E0.22827
G1 X189.457 Y63.432 E0.02912
G1 X189.311 Y63.349 E0.00531
G1 X185.293 Y59.331 E0.17978
G1 F8640
G1 X187.621 Y61.659 E-0.76000
G1 E-0.04000 F2100.00000
G1 Z0.800 F10800.000
G1 X186.023 Y60.599
G1 Z0.200
G1 E0.80000 F2100.00000
G1 F1200
G1 X188.456 Y63.033 E0.10889
G1 F8640
G1 X186.129 Y60.705 E-0.76000
G1 E-0.04000 F2100.00000
G1 Z0.800 F10800.000
G1 X204.788 Y59.992
G1 Z0.200
G1 E0.80000 F2100.00000
G1 F1200
G1 X191.263 Y46.466 E0.60521
G1 X191.687 Y46.353 E0.01390
G1 X203.706 Y58.372 E0.53779
G1 X203.560 Y58.024 E0.01193
G1 X203.404 Y57.531 E0.01634
G1 X192.146 Y46.273 E0.50376
G1 X192.616 Y46.205 E0.01503
G1 X203.176 Y56.765 E0.47252
G1 X203.059 Y56.110 E0.02106
G1 X193.115 Y46.166 E0.44493
G1 X193.645 Y46.158 E0.01678
G1 X202.941 Y55.455 E0.41597
G1 X202.824 Y54.799 E0.02106
G1 X194.200 Y46.175 E0.38590
G1 X194.807 Y46.244 E0.01934
G1 X202.707 Y54.144 E0.35348
G1 X202.581 Y53.480 E0.02139
G1 X195.467 Y46.366 E0.31833
G1 X195.860 Y46.450 E0.01273
G1 X196.186 Y46.547 E0.01075
G1 X202.423 Y52.784 E0.27909
G1 X202.161 Y51.983 E0.02667
G1 X197.008 Y46.831 E0.23055
G1 X198.011 Y47.296 E0.03499
G1 X202.083 Y51.367 E0.18217
G1 F8640
G1 X199.755 Y49.040 E-0.76000
G1 E-0.04000 F2100.00000
G1 Z0.800 F10800.000
G1 X201.456 Y50.202
G1 Z0.200
G1 E0.80000 F2100.00000
G1 F1200
G1 X198.855 Y47.601 E0.11638
M106 S255
;BEFORE_LAYER_CHANGE
G92 E0.0
;0.4


G1 F8640
G1 X201.182 Y49.929 E-0.76000
G1 E-0.04000 F2100.00000
G1 Z0.800 F10800.000
;AFTER_LAYER_CHANGE
;0.4
; PURGING FINISHED
G1 X217.463 Y61.597
G1 Z0.400
G1 E0.80000 F2100.00000
M204 S800
G1 F2700
G1 X217.463 Y64.613 E0.10209
G1 X193.668 Y64.613 E0.80545
G1 X192.722 Y64.571 E0.03203
G1 X191.829 Y64.446 E0.03052
G1 X190.970 Y64.245 E0.02986
G1 X190.147 Y63.968 E0.02940
G1 X189.363 Y63.618 E0.02908
G1 X188.622 Y63.196 E0.02885
G1 X187.925 Y62.706 E0.02885
G1 X187.276 Y62.148 E0.02896
G1 X186.678 Y61.527 E0.02919
G1 X186.135 Y60.842 E0.02959
G1 X185.646 Y60.090 E0.03036
G1 X185.325 Y59.492 E0.02296
G1 X185.038 Y58.865 E0.02334
G1 X184.723 Y57.992 E0.03142
G1 X184.495 Y57.119 E0.03055
G1 X184.351 Y56.249 E0.02984
G1 X184.294 Y55.382 E0.02940
G1 X184.316 Y54.539 E0.02856
G1 X184.422 Y53.677 E0.02938
G1 X184.609 Y52.846 E0.02884
G1 X184.876 Y52.034 E0.02894
G1 X185.222 Y51.242 E0.02924
G1 X185.648 Y50.478 E0.02960
G1 X186.155 Y49.737 E0.03041
